!!!!SEGMENT: pl-wumfc--n53446--001-002_moniuszko-stanislaw--hrabina-akt-pierwszy-no-1.krn
!!!cenid: 18xx:4089
!!!COM: Moniuszko, Stanisław
!!!COM-rismID: pe30008351
!!!CDT: 1819/05/05-1872/06/04
!!!CNT: Polish
!!!OPR: Hrabina
!!!OTL: Akt pierwszy. No. 1
!!!OMV: 002
!!!PDT:
!!!AGN:
!!!SMS-siglum: PL-Wumfc
!!!SMS-shelfmark: N53446
!!!SMS-shelfwork: 001-002 M
!!!SMS-variant:
!!!SMS-altvar:
!!!NIFC-rismSourceID: 1001165649
!!!NIFC-rismChildID: 1001165649
!!!NIFC-islandoraID: pl-wumfc:6884
!!!URL-pdf-islandora: https://repozytorium.nifc.pl/islandora/object/pl-wumfc%3A6884/datastream/PDF/view
!!!URL-scan: https://polish.musicsources.pl/pl/lokalizacje/galeria/druki-muzyczne/12579-hrabina @EN{Scan on Polish Music Sources Website} @PL{Skany w portalu Dziedzictwo Muzyki Polskiej w otwartym dostępie}
!!!ONB-nifc:
!!!OMD: Allegro.
!!!AIN: 1 piano
!!!key: D
**kern	**kern	**text	**dynam
*part1	*part1	*part1	*part1
*staff2	*staff1	*staff1	*
*>[A,B,B1,B,B2,C]	*>[A,B,B1,B,B2,C]	*	*
*>A	*>A	*	*
*I"Piano.	*I"Piano.	*	*
*I'	*I'	*	*
*Ipiano	*Ipiano	*	*
*ICklav	*ICklav	*	*
*clefF4	*clefG2	*	*
*k[f#c#]	*k[f#c#]	*	*
*D:	*D:	*	*
*M2/4	*M2/4	*	*
=1	=1	=1	=1
!	!LO:TX:t=P:problem=fragmenty tekstu słownego nad pięciolinią	!	!
16DD/LL	8r	.	pp
16AA/	.	.	.
*	*clefF4	*	*
16DD/	(16F#\LL	.	.
16AA/JJ	16D\JJ	.	.
16DD/LL	16F#\LL	.	.
16AA/	16D\	.	.
16DD/	16F#\	.	.
16AA/JJ	16D\JJ	.	.
=2	=2	=2	=2
16DD/LL	8F#'\)	.	.
16AA/	.	.	.
16DD/	(16ALL 16F#\	.	.
16AA/JJ	16D\JJ	.	.
!	!LO:TX:b:Bi:t=un poco cre_scen_do:problem:dynamics with extension lines	!	!LO:HP:t=un poco cre_scen_do
16DD/LL	16ALL 16F#\	.	<
16AA/	16D\	.	.
16DD/	16A 16F#\	.	.
16AA/JJ	16D\JJ	.	.
=3	=3	=3	=3
16DD/LL	8A 8F#'\)	.	.
16AA/	.	.	.
16DD/	(16dLL 16F#\	.	.
16AA/JJ	16D\JJ	.	.
16DD/LL	16dLL 16F#\	.	.
16AA/	16D\	.	.
16DD/	16d 16F#\	.	.
16AA/JJ	16D\JJ	.	.
=4	=4	=4	=4
16DD/LL	8d 8F#\)	.	.
16AA/	.	.	.
*	*clefG2	*	*
16DD/	(16f#LL 16d/	.	.
16AA/JJ	16A/JJ	.	.
16DD/LL	16f#LL 16d/	.	.
16AA/	16A/	.	.
16DD/	16f# 16d/	.	.
16AA/JJ	16A/JJ	.	.
!!LO:LB:g=original
=5	=5	=5	=5
16DD/LL	8f# 8d/)	.	.
16AA/	.	.	.
16DD/	(8g/L	.	.
16AA/JJ	.	.	.
16DD/LL	8f#/	.	.
16AA/	.	.	.
16DD/	8d/J	.	.
16AA/JJ	.	.	.
=6	=6	=6	=6
16DD/LL	8A/)	.	.
16AA/	.	.	.
16DD/	(8b/L	.	.
16AA/JJ	.	.	.
16DD/LL	8a/	.	.
16AA/	.	.	.
16DD/	8f#/J	.	[
16AA/JJ	.	.	.
=7	=7	=7	=7
16DD/LL	8d/)	.	.
16AA/	.	.	.
16DD/	(8ee\L	.	.
16AA/JJ	.	.	.
16DD/LL	8dd\	.	.
16AA/	.	.	.
16DD/	8a\J	.	.
16AA/JJ	.	.	.
=8	=8	=8	=8
8DD/L	8f#\L)	.	mf
8D 8AA'/	8a 8f#'\	.	.
8D 8FF#'/	8dd 8a 8f#'\	.	.
8DJ 8DD'/	8ff#J 8a 8f#'\	.	.
!!LO:LB:g=original
=9	=9	=9	=9
16CC#/LL	8aa 8ee 8a'\	.	fpp
16AA/	.	.	.
*	*clefF4	*	*
16CC#/	(16A\LL	.	.
16AA/JJ	16E\JJ	.	.
16CC#/LL	16A\LL	.	.
16AA/	16E\	.	.
16CC#/	16A\	.	.
16AA/JJ	16E\JJ	.	.
=10	=10	=10	=10
16CC#/LL	8A\)	.	.
16AA/	.	.	.
16CC#/	(16c#LL 16A\	.	.
16AA/JJ	16E\JJ	.	.
!	!LO:TX:b:Bi:t=un poco cresc.:problem:dynamics with extension lines	!	!LO:HP:t=un poco cresc.
16CC#/LL	16c#LL 16A\	.	<
16AA/	16E\	.	.
16CC#/	16c# 16A\	.	.
16AA/JJ	16E\JJ	.	.
=11	=11	=11	=11
16CC#/LL	8c# 8A\)	.	.
16AA/	.	.	.
16CC#/	(16eLL 16A\	.	.
16AA/JJ	16E\JJ	.	.
16CC#/LL	16eLL 16A\	.	.
16AA/	16E\	.	.
16CC#/	16e 16A\	.	[
16AA/JJ	16E\JJ	.	.
=12	=12	=12	=12
16CC#/LL	8e 8A\)	.	.
16AA/	.	.	.
*	*clefG2	*	*
16CC#/	(16a/LL	.	.
16AA/JJ	16e/JJ	.	.
16CC#/LL	16a/LL	.	.
16AA/	16e/	.	.
16CC#/	16a/	.	.
16AA/JJ	16e/JJ	.	.
!!LO:LB:g=original
=13	=13	=13	=13
16CC#/LL	8a/)	.	.
16AA/	.	.	.
16CC#/	(8b/L	.	.
16AA/JJ	.	.	.
16CC#/LL	8a/	.	.
16AA/	.	.	.
16CC#/	8e/J	.	.
16AA/JJ	.	.	.
=14	=14	=14	=14
16CC#/LL	8A/)	.	.
16AA/	.	.	.
16CC#/	(8dd\L	.	.
16AA/JJ	.	.	.
16CC#/LL	8cc#\	.	.
16AA/	.	.	.
16CC#/	8a\J	.	.
16AA/JJ	.	.	.
=15	=15	=15	=15
16CC#/LL	8e/)	.	.
16AA/	.	.	.
16CC#/	(8ff#\L	.	.
16AA/JJ	.	.	.
16CC#/LL	8ee\	.	.
16AA/	.	.	.
16CC#/	8cc#\J	.	.
16AA/JJ	.	.	.
=16	=16	=16	=16
8CC#'/L	8a\L)	.	mf
8AA 8EE'/	8cc# 8a'\	.	.
8AA 8CC#'/	8ee 8cc# 8a'\	.	.
8AAJ 8AAA'/	8aaJ 8ee 8cc#'\	.	.
!!LO:LB:g=original
=17	=17	=17	=17
16BBB/LL	8ff# 8dd\	.	fpp
16FF#/	.	.	.
16BBB/	(16d/LL	.	.
16FF#/JJ	16B/JJ	.	.
16BBB/LL	16d/LL	.	.
16FF#/	16B/	.	.
16BBB/	16d/	.	.
16FF#/JJ	16B/JJ	.	.
=18	=18	=18	=18
!	!LO:TX:b:Bi:t=cre_scen_do:problem:dynamics with extension lines	!	!LO:HP:t=cre_scen_do
16BBB/LL	8d/)	.	<
16FF#/	.	.	.
16BBB/	(16f#LL 16d/	.	.
16FF#/JJ	16B/JJ	.	.
16BBB/LL	16f#LL 16d/	.	.
16FF#/	16B/	.	.
16BBB/	16f# 16d/	.	.
16FF#/JJ	16B/JJ	.	.
=19	=19	=19	=19
16BBB/LL	8f# 8d/)	.	.
16FF#/	.	.	.
16BBB/	(16b/LL	.	.
16FF#/JJ	16d/JJ	.	.
16BBB/LL	16b/LL	.	.
16FF#/	16d/	.	.
16BBB/	16b/	.	.
16FF#/JJ	16d/JJ	.	.
=20	=20	=20	=20
16BBB/LL	8b/)	.	.
16FF#/	.	.	.
16BBB/	(<16ddLL 16b/	.	.
16FF#/JJ	16f#/JJ	.	.
16BBB/LL	16ddLL 16b/	.	.
16FF#/	16f#/	.	.
16BBB/	16dd 16b/	.	.
16FF#/JJ	16f#/JJ	.	.
!!LO:PB:g=original
=21	=21	=21	=21
16BBB/LL	8dd 8b\)	.	.
16FF#/	.	.	.
16BBB/	(8ee\L	.	.
16FF#/JJ	.	.	.
16BBB/LL	8dd\	.	.
16FF#/	.	.	.
16BBB/	8b\J	.	.
16FF#/JJ	.	.	.
=22	=22	=22	=22
16BBB/LL	8f#/)	.	.
16FF#/	.	.	.
16BBB/	(8gg\L	.	.
16FF#/JJ	.	.	.
16BBB/LL	8ff#\	.	.
16FF#/	.	.	.
16BBB/	8dd\J	.	.
16FF#/JJ	.	.	.
=23	=23	=23	=23
16BBB/LL	8b\)	.	[
16FF#/	.	.	.
16BBB/	(8ccc#\L	.	.
16FF#/JJ	.	.	.
16BBB/LL	8bb\	.	.
16FF#/	.	.	.
16BBB/	8ff#\J	.	.
16FF#/JJ	.	.	.
=24	=24	=24	=24
8BBB/L	8dd\L)	.	<
8BB 8FF#'/	8ff# 8dd'\	.	.
8BB 8DD'/	8bb 8ff# 8dd'\	.	.
8BBJ 8BBB'/	8dddJ 8ff# 8dd'\	.	[
!!LO:LB:g=original
=25	=25	=25	=25
8FF#/	[4ddd 4aa 4dd^^\	.	f
16ALL 16F#\	.	.	.
16d\JJ	.	.	.
16ALL 16F#\	16ddd\LL]	.	.
16d\	16ccc#\	.	.
16A 16F#\	16bb\	.	.
16d\JJ	16aa\JJ	.	.
=26	=26	=26	=26
16ALL 16F#\	16gg\LL	.	.
16d\	16ff#\	.	.
16A 16F#\	16ee\	.	.
16d\JJ	16dd\JJ	.	.
16ALL 16F#\	16cc#\LL	.	.
16d\	16dd\	.	.
16A 16F#\	16ee\	.	.
16d\JJ	16dd\JJ	.	.
=27	=27	=27	=27
8BB/	[4ddd 4ff# 4dd^^\	.	.
16B\LL	.	.	.
16d\JJ	.	.	.
16B\LL	16ddd\LL]	.	.
16d\	16ccc#\	.	.
16B\	16bb\	.	.
16d\JJ	16aa\JJ	.	.
=28	=28	=28	=28
16B\LL	16gg\LL	.	.
16d\	16ff#\	.	.
16B\	16ee\	.	.
16d\JJ	16dd\JJ	.	.
16B\LL	16cc#\LL	.	.
16d\	16dd\	.	.
16B\	16ee\	.	.
16d\JJ	16dd\JJ	.	.
!!LO:LB:g=original
=29	=29	=29	=29
8GG/	[4ddd 4bb 4dd^^\	.	.
16BLL 16G\	.	.	.
16d\JJ	.	.	.
16BLL 16G\	16ddd\LL]	.	.
16d\	16ccc#\	.	.
16B 16G\	16bb\	.	.
16d\JJ	16aa#X\JJ	.	.
=30	=30	=30	=30
16BLL 16G\	16bb\LL	.	.
16e\	16aan\	.	.
16B 16G\	16gg\	.	.
16e\JJ	16ff#\JJ	.	.
16BLL 16G\	16ee\LL	.	.
16e\	16dd\	.	.
16B 16G\	16ee\	.	.
16e\JJ	16ff#\JJ	.	.
=31	=31	=31	=31
16c#LL 16A 16G\	16aa\LL	.	.
16e\	16gg\	.	.
16c# 16A 16G\	16ff#\	.	.
16e\JJ	16ee\JJ	.	.
16c#LL 16A 16G\	16ff#\LL	.	.
16e\	16ee\	.	.
16c# 16A 16G\	16cc#\	.	.
16e\JJ	16a\JJ	.	.
=32	=32	=32	=32
16c#LL 16A 16G\	16aa\LL	.	.
16e\	16gg\	.	.
16c# 16A 16G\	16ff#\	.	.
16e\JJ	16ee\JJ	.	.
16c#LL 16A 16G\	16dd\LL	.	.
16e\	16cc#\	.	.
16c# 16A 16G\	16b\	.	.
16e\JJ	16a\JJ	.	.
!!LO:LB:g=original
=33	=33	=33	=33
8d 8A 8F#\	8dd\	.	.
(8f#^\L	(8ff#^\L	.	.
8e\	8ee\	.	.
8c#\J	8cc#\J	.	.
=34	=34	=34	=34
8e\L	8ee\L	.	.
8d\	8dd\	.	.
8A#X\	8a#X\	.	.
8c#\J	8cc#\J	.	.
=35	=35	=35	=35
8B\L	8b/L	.	.
8An\	8an/	.	.
8F#\	8f#/	.	.
8C#\J	8c#/J	.	.
=36	=36	=36	=36
8E/L	8e/L	.	.
8D/	8d/	.	.
8AA#X/	8A#X/	.	.
8qC#/	8qc#/	.	.
8BB/J)	8B/J)	.	.
=37	=37	=37	=37
(2E 2D 2GG#X/	(>[2e 2B/	.	p
=38	=38	=38	=38
*	*^	*	*
2D 2GGn/	4e/]	2B-X\	.	.
.	8f#/L	.	.	.
.	8g/J	.	.	.
!!LO:LB:g=original
=39	=39	=39	=39	=39
4D 4FF#/	4a/	4A\	.	.
[4AA 4EE/	8bn/L	4g\	.	.
.	8cc#/J	.	.	.
=40	=40	=40	=40	=40
8AA] 8DD/)	8dd/)	8f#\	.	.
8r	8r	8ryy	.	.
8B 8BB\	8f# 8d/	4ryy	.	pp
8r	8r	.	.	.
*	*v	*v	*	*
=41	=41	=41	=41
8E 8GG/	8b 8d/	.	.
8r	8r	.	.
4r	4r	.	.
=42	=42	=42	=42
8E 8GG#X/	8b-X 8d/	.	.
8r	8r	.	.
4r	4r	.	.
=43	=43	=43	=43
8E 8AA/	8e 8d 8A/	.	.
8r	8r	.	.
4r	4r	.	.
=44	=44	=44	=44
8AA 8AAA/	8a 8e 8c# 8A/	.	.
8r	8r	.	.
4r;	4r;	.	.
!!LO:PB:g=original
=45	=45	=45	=45
16DD/LL	8r	.	.
16AA/	.	.	.
*	*clefF4	*	*
16DD/	(16F#\LL	.	.
16AA/JJ	16D\JJ	.	.
16DD/LL	16F#\LL	.	.
16AA/	16D\	.	.
16DD/	16F#\	.	.
16AA/JJ	16D\JJ	.	.
=46	=46	=46	=46
16DD/LL	8F#\)	.	.
16AA/	.	.	.
16DD/	(16ALL 16F#\	.	.
16AA/JJ	16D\JJ	.	.
16DD/LL	16ALL 16F#\	.	.
16AA/	16D\	.	.
16DD/	16A 16F#\	.	.
16AA/JJ	16D\JJ	.	.
=47	=47	=47	=47
16DD/LL	8A 8F#\)	.	.
16AA/	.	.	.
16DD/	(16dLL 16F#\	.	.
16AA/JJ	16D\JJ	.	.
16DD/LL	16dLL 16F#\	.	.
16AA/	16D\	.	.
16DD/	16d 16F#\	.	.
16AA/JJ	16D\JJ	.	.
=48	=48	=48	=48
8DD'/L	8d 8D\)	.	.
*	*clefG2	*	*
!	!LO:TX:a:t=CHÓR.	!	!
8AA'/	(16f#LL 16d/	.	.
.	16A/JJ	.	.
8FF#'/	16f#LL 16d/	.	.
.	16A/	.	.
*	*	*above	*
8DD'/J	16f# 16d/	Gust	.
.	16A/JJ)	.	.
!!LO:LB:g=original
=49	=49	=49	=49
8EE'/L	8aL 8c#'/	pań-	.
8E'/	8g 8c# 8A'/	-ski,	.
8AA'/	8f# 8c# 8A'/	świe-	.
8EE'/J	8gJ 8c# 8A'/	-tny	.
=50	=50	=50	=50
.	8qA/	.	.
8FF#'/L	4b 4d/	no-	.
8D'/	.	.	.
8AA'/	8aL 8d'/	-wy	.
8FF#'/J	8ddJ 8a 8d'/	u-	.
=51	=51	=51	=51
8GG'/L	8ddL 8a 8d'/	-ro-	.
8E'/	8cc# 8a 8d'/	-czo	.
8AA'/	8b 8a 8d'/	wszy-	.
8GG'/J	8cc#J 8a 8e'/	-stko	.
=52	=52	=52	=52
*	*^	*	*
.	.	8qd/	.	.
8FF#'/L	4ee/	4.a\	spla-	.
8F#'/	.	.	.	.
8D'/	8dd/L	.	-ta,	.
8AA'/J	8dd/J	8f#\	w_sa-	.
=53	=53	=53	=53	=53
8BB'\L	8cc#'/L	8cc#L 8f#\	-lo-	<
8F#'\	8dd'/	8b 8f#\	-nach	.
8D'\	8ee'/	8b 8f#\	pięk-	.
8BB'\J	8ff#'/J	8bJ 8f#\	-néj	[
=54	=54	=54	=54	=54
8EE'/L	(4ff#/	4b 4g#X\	wdo-	>
8E'/	.	.	.	.
8D'/	8b/L)	8g#\L	-wy,	.
8BB'/J	8ee'/J	8g#'\J	szczę-	]
!!LO:LB:g=original
=55	=55	=55	=55	=55
8AA'\L	8dd'/L	8gn\L	-śli-	.
8E'\	8cc#'/	8g 8e\	.	.
8A'\	8b'/	8g 8d\	-wa!	.
8AA'\J	8a'/J	8gJ 8c#\	bo-	.
=56	=56	=56	=56	=56
8D'/L	(4b/	4f# 4d\	-ga-	.
8AA'/	.	.	.	.
8FF#'/	8a/L)	8f#L 8d\	-ta!	.
8DD'/J	8f#/J	8d\J	So-	.
*	*v	*v	*	*
=57	=57	=57	=57
8EE'/L	8aL 8c#'/	-sie-	.
8E'/	8g 8c# 8A'/	-ty	.
8AA'/	8f# 8c# 8A'/	or-	.
8GG'/J	8gJ 8c# 8A'/	-szak	.
=58	=58	=58	=58
.	8qA/	.	.
8FF#'/L	(>4b 4d/	ca-	.
8D'/	.	.	.
8AA'/	8aL 8d/)	-ły	.
8FF#'/J	8ddJ 8a 8d/	nie	.
=59	=59	=59	=59
*	*^	*	*
8GG'/L	8dd/L	8b-XL 8e\	dłu-	.
8E'/	8cc#/	8b- 8e\	-go	.
8BB-X'/	8b#X/	8b-X 8e\	tu	.
8GG'/J	8cc#/J	8b-J 8e\	przy-	.
=60	=60	=60	=60	=60
*ped	*	*	*	*
8GG#X\L	(4ee/	4bn 4e\	-by-	.
8Bn\	.	.	.	.
8G#X\	8dd/)	8b 8e\	-wa,	.
*Xped	*	*	*	*
!	!LO:TUP:b	!	!	!
8E\J	24dd/LL	8r	to	.
.	24ee/	.	.	.
.	24dd/JJ	.	.	.
*	*v	*v	*	*
!!LO:LB:g=original
=61	=61	=61	=61
!	!	!	!LO:HP:a
8AA\L	8cc#\L	bę-	<
8A\	8dd 8a 8f#\	-dzie	.
8F#\	8ee 8a\	bal	.
8D\J	8ff#J 8dd 8a\	wspa-	[
=62	=62	=62	=62
*	*^	*	*
!	!	!	!	!LO:HP:a
!	!	!	!	!LO:DY:a
8AA\L	(4aa/	4ee 4cc# 4a\	-nia-	f >
8C#\	.	.	.	.
8E\	8gg/L)	8cc#L 8a\	-ły!	]
8A\J	8ff#'/J	8cc#J 8a\	Wspa-	.
=63	=63	=63	=63	=63
.	8qff#/	.	.	.
8AA\L	8ee'/L	8cc#L 8g\	-nia-	.
8A\	8dd#X'/	8cc# 8g\	-ły	.
8AA\	8ee'/	8cc# 8g\	bę-	.
8A\J	8ff#'/J	8cc#J 8g\	-dzie	.
=64	=64	=64	=64	=64
8D\L	4dd/	4f#\	bal.	.
8A\	.	.	.	.
!	!LO:TX:a:t=Dzidzi	!	!	!
8F#\	8r	4ryy	.	.
8D\J	8ff# 8f#'\	.	Wszy-	.
*	*v	*v	*	*
=65	=65	=65	=65
(8BB\L	8eeL 8f#'/	-scy_dzi-	.
8F#\	8dd 8f#'/	-siaj	.
8B\	8cc# 8f#'/	przy-	.
8BB\J)	8bJ 8f# 8d'/	-ja-	.
=66	=66	=66	=66
*	*^	*	*
8E\L	(8a/L	4.d 4.B\	-cie-	.
8BB\	8g#X/J)	.	-le	.
8E\	8g#/L	.	przyj-	.
8B\J	8a/J	8r	-dą	.
*	*v	*v	*	*
!!LO:LB:g=original
=67	=67	=67	=67
8dL 8E'\	8bL 8g#X/	w_fra-	.
8c# 8E'\	8a#X 8f##X/	-kach	.
8d 8E'\	8b 8g#/	po-	.
8E'\J	8eeJ 8e/	-pie-	.
=68	=68	=68	=68
*	*^	*	*
(8AA\L	(4ee/	8cc#\L	-la-	.
8E\	.	8a\	-tych,	.
8c#\)	8a/L)	8e\	stro-	.
8E'\J	8ee/J	8e\J	-je	.
*	*v	*v	*	*
=69	=69	=69	=69
8AA'\L	8ddL 8e'/	dam,	.
8E'\	8ccn 8e'/	a	.
8A'\	8b 8e'/	jest	.
8cn'\J	8aJ 8e'/	ich	.
=70	=70	=70	=70
*	*^	*	*
8D'\L	8g/L	4.cn 4.A\	wie-	.
8A'\	8f#/	.	-le,	.
8D'\	8f#/	.	w_gu-	.
8AA'\J	8g/J	8r	-stach	.
*	*v	*v	*	*
=71	=71	=71	=71
8cnL 8D'\	8aL 8f#/	su-	.
8B 8D'\	8g#X 8e#X/	-prême	.
8c 8D'\	8a 8f#/	genre	.
8AJ 8D'\	8ddJ 8f#/	bo-	.
=72	=72	=72	=72
*^	*^	*	*
4B/	(2G\	8dd/L	[2d\	-ga-	pp
.	.	8g/J	.	-tych.	.
!	!	!LO:TX:a:t=Podcz:	!	!	!
4B-X/	.	8r	.	.	.
.	.	8dd/	.	Su-	.
!!LO:PB:g=original
=73	=73	=73	=73	=73	=73
[2A/	4F#\	4dd/	2d\]	-prême	pp
.	4Fn\	8dd/L	.	po-	.
.	.	8dd/J	.	-pie-	.
=74	=74	=74	=74	=74	=74
2A/_	4E\	8a/L	4g 4c#\	-la-	.
.	.	8a/	.	-tych.	.
!	!	!LO:TX:a:t=Dz&colon;	!	!	!
.	4D\	8a/	4f# 4d\	De	.
.	.	8a/J	.	la	.
=75	=75	=75	=75	=75	=75
2A/]	4C#\	8a/L	2e\	Bla-	.
.	.	8a/	.	-cha	.
.	4Cn\	8a/	.	wiel-	.
.	.	8a/J	.	-ki	.
=76	=76	=76	=76	=76	=76
[2A/	4BB\	4g#X/	2d\	świat.	.
!	!	!LO:TX:a:t=Pod&colon;	!	!	!
.	4BB-X\	8gn/L	.	.	.
.	.	16e/L	.	Sa-	.
.	.	16f#/JJ	.	-ma	.
*v	*v	*	*	*	*
*	*v	*v	*	*
=77	=77	=77	=77
8A]L 8AA'\)	8aL 8c#'/	Bla-	.
8E 8AA'\	8g 8c#'/	-cha!	.
!	!LO:TX:a:t=Dz&colon;	!	!
8A 8AA'\	8f# 8c#'/	Sam	.
8GJ 8AA'\	8eJ 8c#'/	jej	.
=78	=78	=78	=78
8F# 8D\	8d/	kwiat.	.
!	!LO:TX:a:t=CHÓR.	!	!
8AA'/L	8A'/L	.	.
8FF#'/	8A'/	.	.
8DD'/J	8f#J 8d 8A'/	Gust	.
!!LO:LB:g=original
=79	=79	=79	=79
8EE'/L	8aL 8c# 8A'/	.	.
8E'/	8g 8c# 8A'/	.	.
8AA'/	8f# 8c# 8A'/	.	.
8EE'/J	8gJ 8c# 8A'/	.	.
=80	=80	=80	=80
.	8qA/	.	.
8FF#'/L	4b 4d/	.	.
8D'/	.	.	.
8AA'/	8aL 8d'/	.	.
8FF#'/J	8ddJ 8a 8d'/	.	.
=81	=81	=81	=81
8GG'/L	8ddL 8a 8e'/	.	.
8E'/	8cc# 8a 8e'/	.	.
8AA'/	8b 8a 8e'/	.	.
8GG'/J	8cc#J 8a 8e'/	.	.
=82	=82	=82	=82
*	*^	*	*
.	.	8qd/	.	.
8FF#'/L	(4ee/	4.a\	.	.
8F#'/	.	.	.	.
8D'/	8dd/L)	.	.	.
8AA'/J	8dd/J	8f#\	.	.
=83	=83	=83	=83	=83
8BB'\L	8cc#/L	8f#\L	.	<
8F#'\	8dd/	8b 8f#\	.	.
8D'\	8ee/	8b 8f#\	.	.
8BB'\J	8ff#/J	8bJ 8f#\	.	[
=84	=84	=84	=84	=84
8EE'/L	(4ff#/	4b 4g#X\	.	>
8E'/	.	.	.	.
8D'/	8b/L)	8g#\L	.	]
8BB'/J	8ee'/J	8g#'\J	.	.
!!LO:LB:g=original
=85	=85	=85	=85	=85
8AA'\L	8dd'/L	8gn\L	.	.
8E'\	8cc#'/	8g 8e\	.	.
8A'\	8b'/	8g 8d\	.	.
8AA'\J	8a'/J	8gJ 8c#\	.	.
=86	=86	=86	=86	=86
8D'/L	(4b/	4f# 4d\	.	.
8AA'/	.	.	.	.
8FF#'/	8a/L)	8f#L 8d\	.	.
8DD'/J	8f#/J	8d\J	.	.
*	*v	*v	*	*
=87	=87	=87	=87
8EE'/L	8aL 8c#'/	.	.
8E'/	8g 8c# 8A'/	.	.
8AA'/	8f# 8c# 8A'/	.	.
8GG'/J	8gJ 8c# 8A'/	.	.
=88	=88	=88	=88
.	8qA/	.	.
8FF#'/L	4b 4d/	.	.
8D'/	.	.	.
8AA'/	8aL 8d/	.	.
8FF#'/J	8ddJ 8a 8d/	.	.
=89	=89	=89	=89
*	*^	*	*
8GG'/L	8dd/L	8b-XL 8e\	.	.
8E'/	8cc#/	8b- 8e\	.	.
8BB-X'/	8b#X/	8b-X 8e\	.	.
8GG'/J	8cc#/J	8b-J 8e\	.	.
=90	=90	=90	=90	=90
*ped	*	*	*	*
8GG#X\L	(4ee/	4bn 4e\	.	.
8Bn\	.	.	.	.
*Xped	*	*	*	*
8G#X\	8dd/)	8b 8e\	.	.
!	!LO:TUP:b	!	!	!
8E\J	24dd/LL	8r	.	.
.	24ee/	.	.	.
.	24dd/JJ	.	.	.
*	*v	*v	*	*
!!LO:LB:g=original
=91	=91	=91	=91
8AA\L	8cc#\L	.	.
8A\	8dd 8a 8f#\	.	.
8F#\	8ee 8a\	.	.
8D\J	8ff#J 8dd 8a\	.	.
=92	=92	=92	=92
*	*^	*	*
!	!	!	!	!LO:DY:a
8AA\L	(4aa/	4ee 4cc# 4a\	.	f
8C#\	.	.	.	.
8E\	8gg/L)	8cc#L 8a\	.	.
8A\J	8ff#/J	8cc#J 8a\	.	.
=93	=93	=93	=93	=93
.	8qff#/	.	.	.
8AA\L	8ee'/L	8cc#L 8g\	.	.
8A\	8dd#X'/	8cc# 8g\	.	.
8AA\	8ee'/	8cc# 8g\	.	.
8A\J	8ff#'/J	8cc#J 8g\	.	.
*	*v	*v	*	*
=94	=94	=94	=94
8D\	8dd 8f#/	.	.
(32g>\LLL	(32gg/LLL	.	sf
32f#>\	32ff#/	.	.
!	!	!	!LO:HP:b=2
32e>\	32ee/	.	>
32f#>\JJJ	32ff#/JJJ	.	.
8a>\L)	8aa/L)	.	.
8f#>'\J	8ff#'/J	.	.
=95	=95	=95	=95
!LO:TX:t=P:problem=mixed beam	!	!	!
8d>'\L	8dd'/L	.	.
8A'>/	8a'/	.	.
8F#'>/	8f#'/	.	.
8D'>/J	8d'/J	.	]
=96	=96	=96	=96
*^	*^	*	*
!	!	!LO:TX:a:t=Dz&colon;	!	!	!
[2E/	(2C#\	4r	(2e\	.	p
.	.	8a/L	.	A-	.
.	.	8a/J	.	-le	.
=97	=97	=97	=97	=97	=97
2E/]	4BB\	8g#X/L	4d\	w_ca-	.
.	.	8a/	.	-łej	.
.	4AA\	8gn/	4c#\	tej	.
.	.	8a/J	.	so-	.
*v	*v	*	*	*	*
!!LO:LB:g=original
=98	=98	=98	=98	=98
8D\)	8f#/	8d\)	-siecie	.
(32g>\LLL	(32gg/LLL	8ryy	.	sf
32f#>\	32ff#/	.	.	.
!	!	!	!	!LO:HP:b=2
32e>\	32ee/	.	.	>
32f#>\JJJ	32ff#/JJJ	.	.	.
8a>\L)	8aa/L)	4ryy	.	.
8f#>'\J	8ff#'/J	.	.	.
*	*v	*v	*	*
=99	=99	=99	=99
!LO:TX:t=P:problem=mixed beam	!	!	!
8d>'\L	8dd'/L	.	.
8A'>/	8a'/	.	.
8F#'>/	8f#'/	.	.
8D'>/J	8d'/J	.	]
=100	=100	=100	=100
*	*^	*	*
!	!	!	!	!LO:DY:b=1
(2B [2D\	4r	2g 2d\	.	p
.	8dd/L	.	kto	.
.	8cc#X/J	.	się	.
=101	=101	=101	=101	=101
2B-X 2D\]	8.ee/L	2g^\	zja-	.
.	16dd/K	.	-wi,	.
.	8b-X/	.	czy	.
.	8g/J	.	zga-	.
*	*v	*v	*	*
=102	=102	=102	=102
8A 8D\)	8f#/	-dniecie?	.
(32Bn\LLL	(32bn/LLL	.	.
32A\	32a/	.	.
32G#X\	32g#X/	.	.
32A\JJJ	32a/JJJ	.	.
8F#\L)	8f#/L)	.	.
8d'\J	8dd'/J	.	.
=103	=103	=103	=103
8A'\	8a'/	.	.
8r	8r	.	.
4r	4a/	Siur-	pp
!!LO:PB:g=original
=104	=104	=104	=104
(2d\	4dd\	-pry-	.
.	8dd\L	-za	.
.	8dd\J	nad	.
=105	=105	=105	=105
2c#\	4cc#\	siur-	.
.	4cc#\	-pry-	.
=106	=106	=106	=106
4cn\)	8ccn\	-zami	.
!	!LO:TX:b:i:t=leggiero	!	!
.	(32dd\LLL	.	.
!	!LO:TX:a:t=Pod&colon;	!	!
.	32cc\	.	.
.	32b\	.	.
.	32cc\JJJ	.	.
8r	8a'\L)	Tak,	.
8c'\	8ffnJ 8a 8fn'\	sium-	.
=107	=107	=107	=107
8Cn'\L	8eeL 8b-X 8g'/	-pry-	.
8cn'\	8dd 8b- 8g'/	-za,	.
8C'\	8b- 8g'/	sium-	.
8c'\J	8gJ 8e 8B-X'/	-pry-	.
=108	=108	=108	=108
8Fn\	8a 8fn 8A'/	-zeczka	.
!	!LO:TX:a:t=Dz&colon;	!	!
8r	8r	.	.
8A'\L	8a'/L	Sa-	mf
8B-X'\J	8b-X'/J	-ma	.
!!LO:LB:g=original
=109	=109	=109	=109
8Bn'\L	8bn'\L	pa-	.
8cn'\	8ccn'\	-ni	.
8d'\	8dd'\	de	.
8e'\J	8ee'\J	Vau-	.
=110	=110	=110	=110
8fn'\	8ffn'\	-ban!	.
8r	8r	.	.
!	!LO:TX:a:t=Pod&colon;	!	!LO:DY:t=più f
8Fn\L	8fn/L	Sa-	f
8G\J	8g/J	-ma	.
=111	=111	=111	=111
8A'\L	8a'\L	pa-	.
8B-X'\	8b-X'\	-ni	.
8cn'\	8ccn'\	de	.
8c#X'\J	8cc#X'\J	Vau-	.
=112	=112	=112	=112
8d\	8dd'\	-ban!	.
!	!LO:TX:a:t=CHÓR.	!	!
8r	8r	.	.
!	!	!	!LO:DY:t=ff ritenuto
8D^\L	8d^/L	Sa-	ff
8E^\J	8e^/J	-ma	.
=113	=113	=113	=113
8Fn^\L	8fn^/L	Pa-	.
8F#X^\	8f#X^/	-ni	.
8G^\	8g^/	de	.
8G#X^\J	8g#X^/J	Vau-	.
!!LO:LB:g=original
=114	=114	=114	=114
*	*^	*	*
!	!	!	!	!LO:DY:t=p a tempo
8A\	8a/	8ryy	-ban!	p
8r	8r	8b\L	.	c'est
(4f# (4A\	(4bb 4dd#X^/	8b\	sur-	.
.	.	8b\J	.	-pre-
=115	=115	=115	=115	=115
*^	*	*	*	*
8B 8G#X\))	8ryy	8ee/)	8b 8e\	-nant!_c'est_êtonnant!	.
8E/L	8r	8r	8ryy	.	.
8A/	(4Gn 4AA\	4a 4c#^/	4ryy	.	.
8A/J	.	.	.	.	.
*	*	*v	*v	*	*
=116	=116	=116	=116	=116
8A/	8F# 8D\)	8d/	.	.
16AA/LL	4ryy	8r	.	.
16D/JJ	.	.	.	.
16DD/LL	.	8r	.	.
16D/	.	.	.	.
16AA/	8ryy	8ff# 8dd 8f#'\	Gust....	.
16D/JJ	.	.	.	.
*v	*v	*	*	*
=117	=117	=117	=117
16EE/LL	8aaL 8cc# 8a'\	.	.
16E/	.	.	.
16AA/	8gg 8cc# 8g'\	.	.
16E/JJ	.	.	.
16EE/LL	8ff# 8cc# 8f#'\	.	.
16E/	.	.	.
16AA/	8ggJ 8cc# 8g'\	.	.
16E/JJ	.	.	.
!!LO:LB:g=original
=118	=118	=118	=118
*	*^	*	*
16FF#/LL	4bb 4b^/	8r	.	.
16F#/	.	.	.	.
16AA/	.	8dd\	.	.
16F#/JJ	.	.	.	.
16FF#/LL	8aaL 8dd 8a'\	8ryy	.	.
16D/	.	.	.	.
16AA/	8dddJ 8aa 8dd'\	8ryy	.	.
16D/JJ	.	.	.	.
*	*v	*v	*	*
=119	=119	=119	=119
16GG/LL	8dddL 8aa 8dd'\	.	.
16E/	.	.	.
16AA/	8ccc# 8aa 8cc#'\	.	.
16E/JJ	.	.	.
16GG/LL	8bb 8aa 8b'\	.	.
16E/	.	.	.
16AA/	8ccc#J 8aa 8cc#'\	.	.
16E/JJ	.	.	.
=120	=120	=120	=120
16FF#/LL	(4eee 4aa (4ee^\	.	.
16D/	.	.	.
16AA/	.	.	.
16D/JJ	.	.	.
16FF#/LL	8ddd 8aa 8dd\))	.	.
16F#/	.	.	.
16D/	(24ddd\LL	.	.
.	24eee\	.	.
16F#/JJ	.	.	.
.	24ddd\JJ	.	.
=121	=121	=121	=121
16BB\LL	8ccc#\L)	.	<
16F#\	.	.	.
16D\	8ddd 8dd\	.	.
16F#\JJ	.	.	.
16BB\LL	8eee 8ee\	.	.
16F#\	.	.	.
16D\	8fff#J 8ff#\	.	.
16F#\JJ	.	.	[
!!LO:LB:g=original
=122	=122	=122	=122
16EE/LL	(4fff# 4ddd 4gg#X 4ff#^^\	.	sf >
16E/	.	.	.
16BB/	.	.	.
16E/JJ	.	.	]
16EE/LL	8bbL 8gg#\)	.	.
16E/	.	.	.
16BB/	8eeeJ 8ee\	.	.
16E/JJ	.	.	.
=123	=123	=123	=123
16AA/LL	(8dddL 8ggn 8dd\	.	.
16E/	.	.	.
16AA/	8ccc# 8gg 8cc#\)	.	.
16E/JJ	.	.	.
16AA/LL	8bb 8gg 8b'\	.	.
16E/	.	.	.
16AA/	8aaJ 8cc# 8a'\	.	.
16E/JJ	.	.	.
=124	=124	=124	=124
16D/LL	4ddd 4aa 4ff# 4dd\	.	.
16F#/	.	.	.
16AA/	.	.	.
16F#/JJ	.	.	.
16FF#/LL	8aaL 8ff# 8dd 8a\	.	.
16AA/	.	.	.
16DD/	8ff#'\J	.	.
16AA/JJ	.	.	.
=125	=125	=125	=125
16EE/LL	8aaL 8cc# 8a'\	.	.
16E/	.	.	.
16AA/	8gg 8cc# 8g'\	.	.
16E/JJ	.	.	.
16EE/LL	8ff# 8cc# 8f#'\	.	.
16E/	.	.	.
16AA/	8ggJ 8cc# 8g'\	.	.
16E/JJ	.	.	.
!!LO:PB:g=original
=126	=126	=126	=126
*	*^	*	*
16FF#/LL	(4bb (4b/	8r	.	.
16F#/	.	.	.	.
16AA/	.	8dd\	.	.
16F#/JJ	.	.	.	.
16FF#/LL	8aaL 8dd 8a\))	8ryy	.	.
16D/	.	.	.	.
16AA/	8dddJ 8dd\	8ryy	.	.
16D/JJ	.	.	.	.
*	*v	*v	*	*
=127	=127	=127	=127
16GG/LL	8dddL 8dd\	.	<
16E/	.	.	.
16BB-X/	8ccc# 8cc#\	.	.
16E/JJ	.	.	.
16GG/LL	8bb#X 8b#X\	.	.
16E/	.	.	.
16BB-/	8ccc#J 8cc#\	.	.
16E/JJ	.	.	[
=128	=128	=128	=128
16GG#X/LL	(4eee 4bbn 4ee^\	.	sf >
16E/	.	.	.
16BBn/	.	.	.
16E/JJ	.	.	.
16GG#/LL	8ddd 8dd\)	.	]
16E/	.	.	.
16BB/	(24ddd\LL	.	.
.	24eee\	.	.
16E/JJ	.	.	.
.	24ddd\JJ	.	.
=129	=129	=129	=129
16AA\LL	8ccc#\)	.	<
16A\	.	.	.
16D\	8dddL 8aa 8ff# 8dd\	.	.
16A\JJ	.	.	.
16AA\LL	8eee 8aa 8ee\	.	.
16A\	.	.	.
16D\	8fff#J 8aa 8ff#\	.	.
16A\JJ	.	.	[
!!LO:LB:g=original
=130	=130	=130	=130
*ped	*8va	*	*
16AA\LL	(4aaa 4ccc# (4aa\	.	f
16C#\	.	.	.
16E\	.	.	.
16A\JJ	.	.	.
*Xped	*	*	*
16AA\LL	8gggL 8ccc# 8gg\))	.	.
16A\	.	.	.
16AA\	8fff#J 8ccc# 8ff#\	.	.
16A\JJ	.	.	.
=131	=131	=131	=131
.	8qfff#/	.	>
16AA\LL	8eeeL 8ccc# 8gg'/	.	.
16A\	.	.	.
16AA\	8ddd#X 8ccc# 8ff#'/	.	.
16A\JJ	.	.	.
16AA\LL	8eee 8ccc# 8gg'/	.	.
16A\	.	.	.
16AA\	8fff#J 8ccc# 8gg'/	.	]]
16A\JJ	.	.	.
=132	=132	=132	=132
8D\	8ddd 8ff#/	.	p
*	*X8va	*	*
8B'\L	(>16dd/LL	Tak,	.
.	16d/JJ	.	.
8A'\	16f#/LL	wszy-	.
.	16d/	.	.
8BJ 8G'\	16g/	-scy	.
.	16d/JJ	.	.
=133	=133	=133	=133
8AL 8F#'\	16a/LL	dzi-	.
.	16d/JJ	.	.
.	8qcc#/	.	.
8G'\	16b/LL	-siaj	.
.	16d/JJ	.	.
8F#'\	16a/LL	przy-	.
.	16d/	.	.
8AJ 8E'\	16g/	-ja-	.
.	16c#/JJ	.	.
!!LO:LB:g=original
=134	=134	=134	=134
8AL 8D'\	16f#/LL	-cie-	.
.	16d/	.	.
8G'\	16b/	-le	.
.	16B/JJ	.	.
8F#'\	16d/LL	przyj-	.
.	16A/	.	.
8E'\J	16e 16c#/	-dą,	.
.	16A/JJ	.	.
=135	=135	=135	=135
8D'/L	16f#LL 16d/	w_fra-	.
.	16A/JJ	.	.
.	8qa/	.	.
8GG/	16gLL 16e/	-kach	.
.	16B/JJ	.	.
8AA/	16f#LL 16d/	po-	.
.	16A/	.	.
8GJ 8AA/	16e 16c#/	-pie-	.
.	16A/JJ	.	.
=136	=136	=136	=136
8F# 8D\	8d/)	-la-	.
8B'\L	(>16dd/LL	-tych,	.
.	16d/JJ	.	.
8A'\	16cc#/LL	stro-	.
.	16d/	.	.
8G'\J	16b/	-je	.
.	16d/JJ	.	.
=137	=137	=137	=137
8F#'\L	16a/LL	dam	.
.	16d/JJ	.	.
.	8qcc#/	.	.
8G'\	16b/LL	a	.
.	16d/JJ	jest	.
8F#'\	16a/LL	.	.
.	16d/	.	.
8E'\J	16g 16c#/	ich	.
.	16A/JJ	.	.
!!LO:LB:g=original
=138	=138	=138	=138
8D'\L	16f#/LL	wie-	.
.	16d/	.	.
8G'\	16b/	-le	.
.	16B/JJ	.	.
8F#'\	16d/LL	w_guś-	.
.	16A/	.	.
8E'\J	16e 16c#/	-cie	.
.	16A/JJ	.	.
=139	=139	=139	=139
8D'\L	16f#/LL	sup-	.
.	16d/	-rême	.
8E'\	16g 16e/	.	.
.	16B/JJ	ge-	.
8F#'\	16f#LL 16d/	-nre	.
.	16B/	.	.
8FF#'\J	16e 16A#X/	bo-	.
.	16c#/JJ	.	.
=140	=140	=140	=140
8BB/	8d 8B/)	-ga-	.
8C#/L	16r	.	<
.	16c#/	tych,	.
8D/	16r	.	.
.	16d/	sa-	.
8E/J	16r	.	.
!	!LO:N:vis=16	!	!
.	32e/	-ma	[
!	!LO:N:vis=8	!	!
.	32r	.	.
!!LO:LB:g=original
=141	=141	=141	=141
8F#\L	16r	.	<
.	16f#/	pa-	.
8G\	16r	.	.
.	16g/	-ni	.
8A\	16r	.	.
.	16a/	de	.
8A#X\J	16r	.	.
.	(<16a#X/	Vau-	[
=142	=142	=142	=142
8B\	8b\)	-ban,	.
8r	8r	.	.
4r	4r	.	.
=143	=143	=143	=143
4B 4F# 4BB\	4ff# 4dd#X 4b 4a\	c'est	ff
8.BL 8.F# 8.BB\	8.ff#L 8.dd# 8.b 8.a\	sur-	.
16BJk 16F# 16BB\	16ff#Jk 16dd# 16b 16a\	-pre-	.
=144	=144	=144	=144
4B 4E\	4ee 4b 4g#X\	-nant!	.
4r	4r	.	.
=145	=145	=145	=145
4A 4E 4AA\	4ee 4cc# 4a 4gn\	c'est	.
8.AL 8.E 8.AA\	8.eeL 8.cc# 8.a 8.g\	e-	.
16AJk 16E 16AA\	16eeJk 16cc# 16a 16g\	-ton-	.
=146	=146	=146	=146
4A 4D\	4dd 4a 4f#/	-nant!	.
4r	8r	.	.
.	8dd\	Szczęś-	p
!!LO:PB:g=original
=147!|:	=147!|:	=147!|:	=147!|:
*>B	*>B	*	*
8GG/	4dd\	-li-	.
8B-XL 8G\	.	.	.
8B- 8G\	8g/L	-wa,	.
8B-J 8G\	8b-X/J	bo	.
=148	=148	=148	=148
8qGG/	.	.	.
8D\L	4a/	ga-	.
8A 8F#\	.	.	.
8A 8F#\	8d/	-ta,	.
8d^\J	8r	.	.
=149	=149	=149	=149
4d 4G^\	8g\L	jak	.
.	8a\	świetny	.
8G^\L	8b-X\	bę-	.
8B-X^\J	8dd\J	-dzie	.
=150	=150	=150	=150
*	*^	*	*
*	*	*tremolo	*	*
8qGG/	.	.	.	.
4A^\	4.dd/	8f#L 8d\	bal....	.
.	.	8f# 8d\	.	.
8D\L	.	8f# 8d\	.	.
8D\J	8dd/	8f#J 8d\	.	.
*	*	*Xtremolo	*	*
=151	=151	=151	=151	=151
8GL 8GG\	4dd/	8r	.	.
8A\	.	8gL 8d\	.	.
8B-X\	8g/L	8d\	.	.
8d\J	8b-X/J	8g\J	.	.
*	*v	*v	*	*
!!LO:LB:g=original
=152	=152	=152	=152
8dL 8D\	4a/	.	.
8A 8F#\	.	.	.
8A 8F#\	8d/L	.	.
8AJ 8F#\	8d/J	.	.
=153	=153	=153	=153
*	*^	*	*
8GG/L	4dd/	8r	.	.
8D/	.	8b-XL 8g 8d\	.	.
8BB-X/	8g/L	8d\	.	.
8GG/J	8b-J 8g/	8d\J	.	.
*	*v	*v	*	*
=154	=154	=154	=154
8AA/	8a 8e 8c#/	.	.
8r	8r	.	.
8qAAA/	.	.	.
8AA'^^/L	8A'/L	.	f
8BB'/J	8B'/J	.	.
=155	=155	=155	=155
8C#'\L	8c#'/L	.	.
8E'\	8e'/	.	.
8G'\	8g'/	.	.
8B'\J	8b'/J	.	.
=156	=156	=156	=156
8A'\	8a'/	.	.
8r	8r	.	.
8qDD/	.	.	.
8D^^\L	8d/L	.	.
8E'\J	8e'/J	.	.
!!LO:LB:g=original
=157	=157	=157	=157
8F#'\L	8f#'\L	.	.
8A'\	8a'\	.	.
8cn'\	8ccn'\	.	.
8e'\J	8ee'\J	.	.
=158	=158	=158	=158
4d\	4dd\	.	.
4r	4r	.	.
=159	=159	=159	=159
4e 4B 4G#X\	4ddd 4ee 4dd^\	.	.
8.eL 8.B 8.G#\	8.dddL 8.ee 8.dd\	.	.
16eJk 16B 16G#\	16dddJk 16ee 16dd\	.	.
=160	=160	=160	=160
4e 4d 4A\	4aa 4ee 4dd\	.	.
4r	16bb^\LL	.	.
.	16aa\	.	.
.	16gg\	.	.
.	16ff#\JJ	.	.
=161	=161	=161	=161
8GL 8C# 8AA/	16ee\LL	.	.
.	16dd\	.	.
8G 8C# 8AA/	16cc#\	.	.
.	16b\JJ	.	.
8G 8C# 8AA/	16a/LL	.	.
.	16g/	.	.
8GJ 8C# 8AA/	16f#/	.	.
.	16e/JJ	.	.
=162	=162	=162	=162
!LO:TX:t=1.	!	!	!
*>B1	*>B1	*	*
4F# 4D\	4d/	.	.
4r	8r	.	.
.	8dd\	.	.
!!LO:LB:g=original
=163:|!	=163:|!	=163:|!	=163:|!
!LO:TX:t=2.	!	!	!
*>B2	*>B2	*	*
8DD/	8d/	.	p
!	!LO:TUP:b:problem=klamra łukowa	!	!
8dL 8A 8F#\	24a/LL	.	.
.	24b/	.	.
.	24a/JJ	.	.
8d 8B 8E#X\	(8g#X/L	.	.
8dJ 8A 8F#\	8a/J)	I	.
=164	=164	=164	=164
*>C	*>C	*	*
8BB/	4dd\	de	.
8dL 8B 8F#\	.	.	.
8e 8A#X 8F#\	8cc#\L	.	.
8dJ 8B 8F#\	8dd\J	la	.
=165	=165	=165	=165
8GG/	4.b\	Bla-	.
8eL 8B 8G\	.	.	.
8d#X 8B 8F#\	.	.	.
8eJ 8B 8G\	8b\	-cha	.
=166	=166	=166	=166
8AA/	8cc#L 8a'/	ca-	.
8c#L 8A\	8a 8g'/	-ły	.
8dn 8A\	8b 8g'/	wiel-	.
8eJ 8A\	8cc#J 8g'/	-ki	.
=167	=167	=167	=167
8D 8DD/	8dd 8f# 8d/	świat	.
*	*Xtuplet	*	*
8f#L 8d 8A\	24a/LL	.	.
.	24b/	.	.
.	24a/JJ	.	.
8e#X 8d 8A\	8g/L	.	.
8f#J 8d 8A\	8a/J	tak	.
!!LO:LB:g=original
=168	=168	=168	=168
8BB/	4ff#\	de	.
8f#L 8d 8B\	.	.	.
8f# 8e 8A#X\	8cc#\L	.	.
8f#J 8d 8B\	8dd\J	la	.
=169	=169	=169	=169
8GG/	4.b\	Bla-	.
8eL 8B 8G\	.	.	.
8d#X 8B 8F#\	.	.	.
8eJ 8B 8G\	8b\	-cha	.
=170	=170	=170	=170
8AA/	8cc#\L	ca-	.
*clefG2	*	*	*
8c#L 8A/	8gg 8g\	-ły	.
8d 8A/	8ee 8g\	wiel-	.
8eJ 8A/	8cc#J 8g\	-ki	.
*clefF4	*	*	*
=171	=171	=171	=171
8d 8D\	8dd 8f#/	świat	.
8c#\L	8eeL 8a'\	Ten	.
8d\	8ff# 8a'\	pię-	.
8A#X\J	8cc#J 8g'\	-kny	.
=172	=172	=172	=172
8B\L	8ddL 8f#\	świat	.
8cn 8F#\	8dd#X 8a\	sam	.
8BJ 8G\	8eeJ 8b\	je-	.
8A 8AA\	8aa 8ee 8cc#X 8a\	-go	sf
!!LO:PB:g=original
=173	=173	=173	=173
8A 8D\	8ff# 8dd 8a\	kwiat	sf
8c#L 8C#\	8eeL 8a\	.	.
8d 8D\	8ff# 8a\	.	.
8A#XJ 8AA#X\	8cc#J 8g\	.	.
=174	=174	=174	=174
8BL 8BB\	8ddL 8f#\	.	.
8F# 8FF#\	8dd#X 8ccn 8a\	.	.
8GJ 8GG\	8ee 8b 8g\	.	.
8AA 8AAA/	8aaJ 8ee 8cc#X 8g\	.	sf
=175	=175	=175	=175
*ped	*	*	*
8D 8AA 8DD/	4ddd 4aa 4ff# 4dd\	.	ff
16ALL 16F#\	.	.	.
16d\JJ	.	.	.
16ALL 16F#\	16eee\LL	.	.
16d\	16ddd\	.	.
16A 16F#\	16ccc#\	.	.
16d\JJ	16ddd\JJ	.	.
=176	=176	=176	=176
16F#LL 16D\	8fff#'\L	.	.
16A\	.	.	.
16F# 16D\	8ddd'\	.	.
16A\JJ	.	.	.
16F#LL 16D\	8aa'\	.	.
16A\	.	.	.
16F# 16D\	8ff#'\J	.	.
16A\JJ	.	.	.
!!LO:LB:g=original
=177	=177	=177	=177
*Xped	*	*	*
8d\	8dd\	.	.
32e\LLL	32ee\LLL	.	.
32d\	32dd\	.	.
32c#\	32cc#\	.	.
32d\JJJ	32dd\JJJ	.	.
8a\L	8aa\L	.	.
8f#'\J	8ff#'\J	.	.
=178	=178	=178	=178
8d\	8dd\	.	.
8BL 8BB'\	8b'/L	.	.
8A 8AA'\	8a'/	.	.
8F#J 8FF#'\	8f#'/J	.	.
=179	=179	=179	=179
!	!LO:TX:a:i:t=un poco più lento	!	!
8D 8DD/	8d/	.	.
8dL 8A 8F#\	8r	.	p
8d 8A 8F#\	4r	.	.
8dJ 8A 8F#\	.	.	.
=180	=180	=180	=180
8dL 8A 8F#\	4r	.	.
8d 8A 8F#\	.	.	.
!	!LO:TX:a:t=Dz&colon;	!	!
8d 8A 8F#\	8r	.	.
8dJ 8A 8F#\	16dd'\LL	Tak,	.
.	16ee'\JJ	.	.
=181	=181	=181	=181
8dL 8A 8F#\	16ff#'\LL	w_mej	.
.	16dd'\	.	.
8d 8G 8E\	16gg'\	.	.
.	16ff#'\JJ	ku-	.
8d 8F# 8D\	16aa'\LL	-zyn-	.
.	16dd'\	.	.
8dJ 8G 8D\	16ddd'\	.	.
.	16bb'\JJ	-ki	.
!!LO:LB:g=original
=182	=182	=182	=182
8D\	4aa\	domu	.
8dL 8A 8F#\	.	.	.
8d 8A 8F#\	8r	.	.
8dJ 8A 8F#\	(16gg#X\LL	kró-	.
.	16aa\JJ	.	.
=183	=183	=183	=183
8F#\L	16bb\LL	-lo-	.
.	16aa\	.	.
8dJ 8A\	16ff#\	.	.
.	16dd\JJ	.	.
8D\L	8a\L)	-wa	.
8B#XJ 8A 8D#X\	8ff#J 8b#X 8a'\	so-	.
=184	=184	=184	=184
8E\	(4aa 4cc# 4a\	-sie-	.
8c#L 8A 8G\	.	.	.
8c# 8A 8G\	8gg\)	-ty,	.
8c#J 8A 8G\	16cc#'\LL	.	.
.	16dd'\JJ	co	.
=185	=185	=185	=185
8c#L 8B 8G 8E\	16ee\LL	nie	.
.	16dd#X\	.	.
8B#X 8A 8F# 8D#X\	16ff#\	wy-	.
.	16ee\JJ	.	.
8c# 8A 8G 8E\	16gg'\LL	-sia-	.
.	16ff#'\	.	.
8B#J 8A 8F# 8D#\	16aa'\	-da	.
.	16ff#'\JJ	z_ka-	.
!!LO:LB:g=original
=186	=186	=186	=186
8E\	4gg\	-re-	.
8c#L 8A 8G\	.	.	.
8c# 8A 8G\	8r	.	.
8c#J 8A 8G\	(16bb\LL	-ty	.
.	16aa\JJ	wi-	.
=187	=187	=187	=187
8AA\L	16gg\LL	-zy-	.
.	16ff#\	.	.
8e 8c# 8A\	16ee\	-tę	.
.	16dd\JJ	od-	.
8eJ 8c# 8A\	8cc#\L)	-da-	.
8A 8AA'\	8aaJ 8ee 8cc# 8a'\	-jąc	.
=188	=188	=188	=188
8D 8DD/	4ff# 4dd 4a\	komu;	.
8dL 8A 8F#\	.	.	.
8d 8A 8F#\	8r	.	.
8dJ 8A 8F#\	16dd\LL	co	.
.	16ee\JJ	gdy	.
=189	=189	=189	=189
8dL 8A 8F#\	16ff#'\LL	mó-	.
.	16ee'\	.	.
8d 8G 8E\	16gg'\	-wi	.
.	16ff#'\JJ	.	.
8d 8F# 8D\	16aa'\LL	z_kim	.
.	16dd'\	.	.
8dJ 8G 8D\	16ddd'\	wka-	.
.	16bb'\JJ	.	.
!!LO:LB:g=original
=190	=190	=190	=190
8D\	4aa\	-rocy,	.
8dL 8A 8F#\	.	.	.
8d 8A 8F#\	8r	.	.
8dJ 8A 8F#\	(16gg#X\LL	to	.
.	16aa\JJ	już	.
=191	=191	=191	=191
8F#\L	16bb\LL	fa-	.
.	16aa\	.	.
8dJ 8A\	16ff#\	-wor	.
.	16dd\JJ	.	.
8D\L	8a\L)	nie-	.
8B#XJ 8A 8D#X\	8ff#J 8b#X 8a\	sły-	.
=192	=192	=192	=192
8E\	(4aa 4cc# 4a\	-cha-	.
8c#L 8A 8G\	.	.	.
8c# 8A 8G\	8gg\)	-ny,	.
8c#J 8A 8G\	16cc#'\LL	dziś	.
.	16dd'\JJ	.	.
=193	=193	=193	=193
8c#L 8A 8G 8E\	16ee'\LL	dziś	.
.	16dd#X'\	.	.
8B#X 8A 8F# 8D#X\	16ff#'\	tu	.
.	16ee'\JJ	.	.
8c# 8A 8G 8E\	16gg'\LL	o	.
.	16ff#'\	.	.
8B#J 8A 8F# 8D#\	16aa'\	pół-	.
.	16ff#'\JJ	.	.
!!LO:PB:g=original
=194	=194	=194	=194
8E\	4gg\	-nocy	.
8c#L 8A 8G\	.	.	.
8c# 8A 8G\	8r	.	.
8c#J 8A 8G\	(16bb\LL	zja-	.
.	16aa\JJ	-wi	.
=195	=195	=195	=195
8AA\L	16gg\LL	się	.
.	16ff#\	.	.
8e 8c# 8A\	16ee\	bós-	.
.	16dd\JJ	.	.
8eJ 8c# 8A\	8cc#\L)	-two	.
8A 8AA'\	8aaJ 8ee 8cc# 8a'\	Sek-	.
=196	=196	=196	=196
8D\	4ff# 4dd 4a\	-wany,	.
8dL 8D\	.	.	.
8A 8AA\	8r	.	.
8GJ 8GG\	16aa\LL	i	mf
.	16gg\JJ	.	.
=197	=197	=197	=197
*^	*	*	*
8r	(2FF#\	16ff#\LL	za-	.
.	.	16ee\	.	.
8AL 8D/	.	16dd\	-brzmi	.
.	.	16cc#\JJ	w_War-	.
8A 8D/	.	16b/LL	.	.
.	.	16a/	-sza-	.
8AJ 8D/	.	16g/	.	.
.	.	16f#/JJ	-wie	.
!!LO:LB:g=original
=198	=198	=198	=198	=198
8r	2GG\	(4f#/	fa-	.
8BL 8D/	.	.	.	.
8B 8D/	.	8e/)	-ma	.
8BJ 8D/	.	16aa'\LL	i	.
.	.	16gg'\JJ	.	.
=199	=199	=199	=199	=199
8r	2AA\	16ff#'\LL	ust	.
.	.	16ee'\	.	.
8F#L 8D/	.	16dd'\	.	.
.	.	16cc#'\JJ	po-	.
8F# 8D/	.	16b'/LL	-wtó-	.
.	.	16a'/	.	.
8F#J 8D/	.	16g'/	.	.
.	.	16f#'/JJ	-rzą	.
=200	=200	=200	=200	=200
8r	2BB\)	(4f#/	kro-	.
8GL 8D/	.	.	.	.
8G 8D/	.	8e/)	-cie,	.
8GJ 8D/	.	16aa'\LL	że	mf
.	.	16gg'\JJ	.	.
=201	=201	=201	=201	=201
8r	(2FF#\	16ff#\LL	przy-	.
.	.	16ee\	.	.
8AL 8D/	.	16dd\	-szła	.
.	.	16cc#\JJ	Ju-	.
8A 8D/	.	16b/LL	-no-	.
.	.	16a/	.	.
8AJ 8D/	.	16g/	-na	.
.	.	16f#/JJ	.	.
!!LO:LB:g=original
=202	=202	=202	=202	=202
8r	2GG\	(4f#/	sa-	.
8BL 8D/	.	.	.	.
8B 8D/	.	8e/)	-ma	.
8BJ 8D/	.	16aa'\LL	zło-	pp
.	.	16gg'\JJ	-żyć	.
=203	=203	=203	=203	=203
8r	2AA\	16ff#'\LL	hołd	.
.	.	16ee'\	.	.
8F#L 8D/	.	16dd'\	.	.
.	.	16cc#'\JJ	wdzię-	.
8F# 8D/	.	16b'/LL	-kom	.
.	.	16a'/	.	.
8F#J 8D/	.	16g'/	i	.
.	.	16f#'/JJ	.	.
=204	=204	=204	=204	=204
8r	2BB-X\)	(4f#/	cno-	.
8GL 8D/	.	.	.	.
8G 8D/	.	8e/)	-cie,	.
8GJ 8D/	.	16e/LL	więc	.
.	.	16f#/JJ	.	.
*v	*v	*	*	*
=205	=205	=205	=205
8BBn\L	16g#X/LL	bę-	<
.	16a/	.	.
8G#XJ 8E\	16b/	-dzie-	.
.	16cc#/JJ	-my	.
8D\L	16dd\LL	.	.
.	16ee\	.	.
8BJ 8E\	16ff#\	o-	.
.	16gg#X\JJ	-glą-	[
!!LO:LB:g=original
=206	=206	=206	=206
8C#\L	8aa'\L	-da-	.
8AJ 8E\	(16ee\L	-li	.
.	16cc#\JJ)	.	.
8D\L	8b'\L	Her-	.
8BJ 8F#\	(16dd\L	-ku-	.
.	16ff#\JJ)	.	.
=207	=207	=207	=207
8E\L	8ee'\L	-le-	.
8c#J 8A\	(16cc#\L	-sa	.
.	16a\JJ)	.	.
8E\L	8g#X\L	przy	.
8dJ 8B\	(16b\L	Om-	.
.	16ee\JJ)	.	.
=208	=208	=208	=208
8c# 8A\	8a/	-fali.	.
8r	8r	.	.
8c#L 8A'\	8cc#L 8e'/	Więc	pp
8BJ 8A'\	8ddJ 8e'/	bę-	.
=209	=209	=209	=209
8BL 8A'\	8ff#L 8f#'^>/	-dzie-	.
8B 8G#X'\	8ee 8e'/	-my	.
8B 8Gn'\	8b 8e'/	o-	.
8AJ 8G'\	8cc#J 8e'/	-glą-	.
=210	=210	=210	=210
8AL 8G'\	8eeL 8e'^>/	-da-	.
8A 8F#'\	8dd 8d'/	-li	.
8A 8Fn'\	8a 8d'/	Her-	.
8AJ 8F'\	8bJ 8d'/	-ku-	.
!!LO:LB:g=original
=211	=211	=211	=211
8AL 8E\	8cc#L 8c#'/	-le-	.
8A 8E\	16ddL 16e'/	-sa	.
.	16cc#'/JJ	.	.
8G#X 8E\	8bL 8e'/	przy	.
8G#J 8E\	8eJ 8d'/	Om-	.
=212	=212	=212	=212
8AL 8AA'\	8eL 8c#'/	-fa-	.
8AJ 8AA'\	8aJ 8c#'/	-li	.
!	!LO:TX:a:t=Pod&colon;	!	!
8c#L 8A\	8r	.	.
8c#J 8A\	16a/LL	.	.
.	16b/JJ	.	.
=213	=213	=213	=213
8eL 8A'\	16cc#\LL	Nep-	.
.	16b'\	-tun?	.
8d 8A'\	16dd'\	.	.
.	16cc#'\JJ	.	.
!	!LO:TX:a:t=Dz&colon;	!	!
8c# 8A'\	16ee'\LL	.	.
.	16a'\	.	.
8dJ 8A'\	16aa'\	Czyż	.
.	16ff#'\JJ	o	.
=214	=214	=214	=214
8c#L 8A\	4ee\	tem_mowa?	.
8e 8c#\	.	.	.
8e 8c#\	8r	.	.
8eJ 8c#\	(16dd#X\LL	Stryj	.
.	16ee\JJ	.	.
=215	=215	=215	=215
8C#\L	16ff#\LL	Nep-	.
.	16ee\	-tu-	.
8AJ 8E\	16cc#\	-na	.
.	16a\JJ	.	.
8AA\L	8e/L)	tyl-	.
8A#XJ 8E 8AA#X'\	8cc#J 8f##X 8e'/	-ko	.
!!LO:PB:g=original
=216	=216	=216	=216
*^	*	*	*
8r	2C#\	4ee 4g#X 4e/	widzi!	.
!	!	!LO:TX:a:t=Dz&colon;	!	!
8BL 8G#X 8E/	.	.	.	.
8B 8G# 8E/	.	8dd\	Nep-	.
8BJ 8G# 8E/	.	16g#'/LL	-tun	.
.	.	16a'/JJ	.	.
*v	*v	*	*	*
=217	=217	=217	=217
8G#XL 8E 8BB'/	16b'\LL	tak-	.
.	16a#X'\	-że	.
8F##X 8E 8AA#X'/	16cc#'\	.	.
.	16b'\JJ	.	.
8G# 8E 8BB'/	16dd'\LL	się	.
.	16cc#'\	.	.
8F##J 8E 8AA#'/	16ee'\	nie	.
.	16cc#'\JJ	.	.
=218	=218	=218	=218
*^	*	*	*
8r	2BB\	4dd\	schowa!	.
8G#XL 8E 8D/	.	.	.	.
8G# 8E 8D/	.	8r	.	.
8G#J 8E 8D/	.	(16ff#\LL	da-	.
.	.	16ee\JJ	-ruj	.
*v	*v	*	*	*
=219	=219	=219	=219
8EE\L	16dd\LL	Dzi-	.
.	16cc#\	-dzi,	.
8B 8G#X 8E\	16b\	.	.
.	16a\JJ)	mon	.
8eJ 8B 8E\	8g#X/L	.	.
8E 8EE/	8eeJ 8b 8g# 8e/	cher	.
!!LO:LB:g=original
=220	=220	=220	=220
8A 8AA\	4cc# 4a 4e/	Dzidzi!	.
8eL 8c# 8A\	.	.	.
!	!LO:TX:a:t=Dz&colon;	!	!
8e 8c# 8A\	8r	.	.
8eJ 8c# 8A\	16a/LL	Wo-	.
.	16b/JJ	.	.
=221	=221	=221	=221
*^	*	*	*
8r	2Gn\	16cc#\LL	-je-	.
.	.	16dd\	.	.
8eL 8c# 8A/	.	16ee\	-wo-	.
.	.	16ff#\JJ	.	.
8e 8c# 8A/	.	16gg\LL	-dzin-	.
.	.	16aa\	.	.
8eJ 8c# 8A/	.	16bb\	-ka	.
.	.	16ccc#\JJ	tak	.
=222	=222	=222	=222	=222
8r	2F#\	8eee'\	bla-	.
8dL 8A/	.	4ddd^^\	-da	.
8d 8A/	.	.	.	.
8dJ 8A/	.	16cc#\LL	jak	.
.	.	16dd\JJ	.	.
=223	=223	=223	=223	=223
8r	2E\	16ee\LL	zble-	.
.	.	16ff#\	.	.
8c#L 8A 8G/	.	16gg\	-dną	.
.	.	16aa\JJ	.	.
8c# 8A 8G/	.	16bb\LL	dziś	.
.	.	16ccc#\	jej	.
8c#J 8A 8G/	.	16ddd\	.	.
.	.	16eee\JJ	wie-	.
*v	*v	*	*	*
!!LO:LB:g=original
=224	=224	=224	=224
*	*8va	*	*
8D\L	8ggg'\	-czo-	.
8d 8A 8F#\	(4fff#^^\	-ry,	.
8d 8A 8F#\	.	.	.
8dJ 8A 8F#\	16eee\LL	księ-	.
.	16ddd\JJ)	-żna	.
=225	=225	=225	=225
8GG/	(16ccc#\LL	nie	.
.	16eee\	.	.
8dL 8B 8G\	16ddd\	.	.
.	16bb\JJ	.	.
8d 8B 8G\	8gg/)	śpi,	.
8dJ 8B 8G\	(16bb/LL	nie	.
.	16aa/JJ)	.	.
=226	=226	=226	=226
8AA/	16gg#X/LL	ja-	.
.	16aa/	.	.
8dL 8A 8F#\	16ff#/	-da,	.
.	16dd/JJ	.	.
8d 8A 8F#\	8a/	.	.
8dJ 8A 8F#\	16ccc#\LL	hra-	.
.	16ddd\JJ	.	.
=227	=227	=227	=227
8AA/	16eee\LL	-bian-	.
.	16ddd\	.	.
8c#L 8G 8E'\	16ccc#\	-ka	.
.	16bb\JJ	cier-	.
8A 8E 8C#'\	8aa\L	-pi	.
*	*X8va	*	*
8AJ 8E 8AA'\	8aaJ 8cc# 8a\	wa-	.
!!LO:LB:g=original
=228	=228	=228	=228
8d\	16aaLL 16ffn\	-po-	fp
.	16dd\	-ry.	.
8r	16aa 16ff\	.	.
!	!LO:TX:a:t=Pod&colon;	!	!
.	16dd\JJ	.	.
8d\L	16aaLL 16ff\	.	.
.	16dd\	To	.
8d\J	16aa 16ff\	.	.
.	16dd\JJ	złość	.
=229	=229	=229	=229
8d\L	16bb-XLL 16gg\	tyl-	.
.	16dd\	.	.
8d\J	16bb- 16gg\	-ko,	.
.	16dd\JJ	.	.
8G\L	16bbnLL 16ffn\	to	.
.	16dd\	.	.
8G\J	16bb 16ff\	u-	.
.	16dd\JJ	.	.
=230	=230	=230	=230
8cn\L	16cccnLL 16ee\	-da-	.
.	16ccn\	.	.
8c\J	16ccc 16ee\	-nie,	.
.	16cc\JJ	.	.
8c\L	16ggLL 16ee\	.	.
.	16cc\	siu-	.
8c\J	16gg 16ee\	-prem	.
.	16cc\JJ	.	.
=231	=231	=231	=231
8cn\L	16aa-XLL 16ffn\	zdro-	.
.	16ccn\	.	.
8c\J	16aa- 16ff\	-we	.
.	16cc\JJ	.	.
8Fn\L	16aanLL 16ee-X\	są	.
.	16cc\	.	.
8F\J	16aa 16ee-\	te	.
.	16cc\JJ	.	.
!!LO:LB:g=original
=232	=232	=232	=232
(4.G-X 4.GG-X/	(16bb-XLL 16ee-X\	panie....	fp
.	16b-X\	.	.
.	16bb- 16ee-\	.	.
.	16b-\JJ	.	.
.	16bb-LL 16ee-\	.	.
.	16b-\	.	.
8Fn 8FFn/)	16aa 16ee-\	.	.
.	16ccn\JJ)	.	.
=233	=233	=233	=233
(4.G-X 4.GG-X/	(16bb-XLL 16ee-X\	.	fp
.	16b-X\	.	.
.	16bb- 16ee-\	.	.
.	16b-\JJ	.	.
.	16bb-LL 16ee-\	.	.
.	16b-\	.	.
8Fn 8FFn/)	16aa 16ee-\	.	.
.	16ccn\JJ)	.	.
=234	=234	=234	=234
8G-XL 8GG-X'/	(16bb-XLL 16ee-X\	.	<
.	16b-X\	.	.
8FnJ 8FFn'/	16aa 16ee-\	.	.
.	16ccn\JJ	.	.
8G-L 8GG-'/	16bb-LL 16ee-\	.	.
.	16b-\	.	.
8FJ 8FF'/	16aa 16ee-\	.	.
.	16cc\JJ	.	.
=235	=235	=235	=235
8G-XL 8GG-X/	16bb-XLL 16ee-X\	.	.
.	16b-X\	.	.
8FnJ 8FFn/	16aa 16ee-\	.	.
.	16ccn\JJ	.	.
8G-L 8GG-/	16bb-LL 16ee-\	.	.
.	16b-\	.	.
8G-J 8GG-/	16bb- 16ff-X\	.	.
.	16dd-X\JJ)	.	[
!!LO:PB:g=original
=236	=236	=236	=236
(4.Gn (4.GGn/	(16bbnLL 16ddn\	.	fp
.	16bn\	.	.
.	16bb 16dd\	.	.
.	16b\JJ	.	.
.	16bbLL 16dd\	.	.
.	16b\	.	.
8F# 8FF#/))	16aa#X 16ee\	.	.
.	16cc#X\JJ)	.	.
=237	=237	=237	=237
(4.G (4.GG/	(16bbLL 16dd\	.	fp
.	16b\	.	.
.	16bb 16dd\	.	.
.	16b\JJ	.	.
.	16bbLL 16dd\	.	.
.	16b\	.	.
8F# 8FF#/))	16aa#X 16ee\	.	.
.	16cc#\JJ)	.	.
=238	=238	=238	=238
8GL 8GG/	(16bbLL 16dd\	.	<
.	16b\	.	.
8F#J 8FF#/	16aa#X 16ee\	.	.
.	16cc#\JJ	.	.
8GL 8GG/	16bbLL 16dd\	.	.
.	16b\	.	.
8F#J 8FF#/	16aa# 16ee\	.	.
.	16cc#\JJ	.	.
=239	=239	=239	=239
8GL 8GG/	16bbLL 16dd\	.	.
.	16b\	.	.
8F#J 8FF#/	16aa#X 16ee\	.	.
.	16cc#\JJ	.	.
8GL 8GG/	16bbLL 16dd\	.	.
.	16ee\	.	.
8G#XJ 8GG#X/	16ddd 16bb\	.	.
.	16ee\JJ)	.	[[
!!LO:LB:g=original
=240	=240	=240	=240
!	!LO:TX:a:t=Dzidzi	!	!
8A 8AA\	16ccc# 16aa\	.	.
.	16cc#\LL	.	.
*clefG2	*	*	*
[8a^/	16aa 16ee\	Ga-	.
.	16cc#\JJ	.	.
16a/LL]	16aaLL 16ee\	-wę-	.
16e/	16cc#\	.	.
16a/	16ee\	-dy	.
16gn/JJ	16cc#\JJ	.	.
=241	=241	=241	=241
16f#/LL	16dd\LL	szep-	.
16A/	16a\	.	.
16f#/	16aa 16ff# 16dd\	-ty,	.
16e/JJ	16a\JJ	.	.
16d/LL	16aaLL 16ff# 16dd\	róż-	.
16f#/	16a\	.	.
16e/	16dd\	-ne	.
16d/JJ	16a\JJ	.	.
=242	=242	=242	=242
8e/	16cc#\LL	plot-	.
.	16ee\	.	.
8.A^/L	16aa 16gg\	-ki	.
.	16cc#\JJ	.	.
.	16aaLL 16gg\	w_biu-	.
16A/L	16a\	.	.
16B/	16ee\	-rach	.
16c#/JJ	16a\JJ	.	.
=243	=243	=243	=243
16d/LL	16ff#\LL	d'es-	.
16A/	16dd 16a\	.	.
16d/	16aa 16ff#\	-prit	.
16e/JJ	16a\JJ	.	.
16f#/LL	16aaLL 16ff#\	aż	.
16d/	16a\	.	.
16f#/	16dd\	brzmią	.
16d/JJ	16a\JJ	.	.
!!LO:LB:g=original
=244	=244	=244	=244
8a/	16cc#\LL	nie-	.
.	16ee\	.	.
8.a^/L	16aa 16cc#\	-co,	.
.	16ee\JJ	.	.
.	16aaLL 16cc#\	lecz	.
16e/L	16cc#\	.	.
16a/	16ee\	wszys-	.
16g/JJ	16cc#\JJ	.	.
=245	=245	=245	=245
16fn/LL	16dd\LL	-tkie	.
16A/	16a\	.	.
16f/	16aa 16ffn 16dd\	gniew-	.
16e/JJ	16a\JJ	.	.
16d/LL	16aaLL 16ff 16dd\	.	.
16a/	16a\	-ne	.
16f/	16dd\	szcze-	.
16d/JJ	16a\JJ	.	.
=246	=246	=246	=246
16e/LL	16cc#\LL	-biot-	.
16a/J	16ee\	.	.
8.A^/J	16aa 16gg\	-ki	.
.	16eeJJ 16cc#\	.	.
.	16aaLL 16gg\	dziś	.
16A/LL	16a\	.	.
16B/	16ee\	tu	.
16c#/JJ	16a\JJ	.	.
=247	=247	=247	=247
16d/LL	16ffn\LL	zle-	.
16A/	16dd 16a\	.	.
16d/	16aa 16ff\	-cą	.
16e/JJ	16a\JJ	.	.
16g/LL	16aaLL 16ff\	dziś	.
16fn/	16a\	.	.
16e/	16cc#\	tu	.
16d/JJ	16dd\JJ	.	.
*clefF4	*	*	*
!!LO:LB:g=original
=248	=248	=248	=248
!	!LO:TX:a:i:t=leggier.	!	!LO:DY:b=2
[2e [2A\	8cc# 8a\	zle-	pp
.	(32dd\LLL	.	.
.	32cc#\	-cą	.
.	32b\	.	.
.	32cc#\JJJ	.	.
.	8ee\L)	.	.
.	8cc#\J	.	.
=249	=249	=249	=249
8e] 8A\]	8a'/L	.	.
8r	8e'/	.	.
4r	8c#'/	.	.
.	8A'/J	Vau-	.
=250	=250	=250	=250
[2e [2A [2G\	8r	.	.
.	(32dd\LLL	-ba-	.
.	32cc#\	.	.
.	32b\	.	.
.	32cc#\JJJ	.	.
.	8ee\L)	-na,	.
.	8cc#'\J	Beau-	.
=251	=251	=251	=251
8e] 8A] 8G\]	8a'/L	-mon-	.
8r	8e'/	.	.
4r	8c#'/	-ta	.
.	8A'/J	.	.
=252	=252	=252	=252
(2d 2A [2Fn\	8r	.	.
.	(32gg\LLL	sła-	.
.	32ffn\	.	.
.	32ee\	.	.
.	32ff\JJJ	.	.
.	8aa\L)	.	.
.	8ff'\J	.	.
!!LO:LB:g=original
=253	=253	=253	=253
2A 2F\])	8dd'/L	-wa	.
.	8a'/	gdy	.
.	8fn'/	gra-	.
.	8d'/J	-li	.
=254	=254	=254	=254
(2d 2A [2F#X\	8r	.	.
.	(32bb\LLL	te-	.
.	32aa\	.	.
.	32gg#X\	-atr	.
.	32aa\JJJ	.	.
.	8cccn\L)	.	.
.	8aa'\J	jak	.
=255	=255	=255	=255
2A 2F#\])	8dd'/L	wie-	.
.	8ccn'/	-cie,	.
.	8a'/	.	.
.	8ddJ 8d'/	.	.
=256	=256	=256	=256
*	*^	*	*
(2B (2G\	(4dd/	[2d\	zble-	.
.	8b/L)	.	-dnie	.
.	8dd/J	.	dziś	.
=257	=257	=257	=257	=257
2A#X 2F#\))	(4dd/	2d\]	bo	.
.	8a#X/L)	.	ta	.
.	8dd/J	.	za-	.
!!LO:PB:g=original
=258	=258	=258	=258	=258
*^	*	*	*	*
8B/L	(2G\	2dd/	[2d\	-bawa_epo-	.
8B/	.	.	.	.	.
8B-X/	.	.	.	.	.
8B-/J	.	.	.	.	.
=259	=259	=259	=259	=259	=259
*tremolo	*	*	*	*	*
8A/L	2Fn\	2dd/	2d\]	-ką_w_całej	.
8A/	.	.	.	.	.
8A/	.	.	.	.	.
8A/J	.	.	.	.	.
*Xtremolo	*	*	*	*	*
=260	=260	=260	=260	=260	=260
[2A/	4E\	8a/L	4g 4c#\	sosje-	.
.	.	8a/	.	-cie.	.
!	!	!LO:TX:a:t=Pod&colon;	!	!	!
.	4D\	8a/	4f# 4d\	Tak	.
.	.	8a/J	.	e-	.
=261	=261	=261	=261	=261	=261
2A/_	4C#\	8a/L	2e\	-po-	.
.	.	8a/	.	-ka	.
.	4Cn\	8a/	.	to	.
.	.	8a/J	.	nie	.
=262	=262	=262	=262	=262	=262
2A/_	4BB\	(<4g#X/	2d\	la-	.
.	4BB-X\)	8gn/L)	.	-da	.
.	.	8e/J	.	bal,_te-	.
*v	*v	*	*	*	*
*	*v	*v	*	*
!!LO:LB:g=original
=263	=263	=263	=263
8A]L 8AA'\	8aL 8c#'/	-a-	.
8E 8AA'\	8g 8c#'/	-trum	.
8A 8AA'\	8f# 8c#'/	mas-	.
8GJ 8AA'\	8eJ 8c#'/	-ka-	.
=264	=264	=264	=264
8F# 8D\	8d/	-rada.	mf
8AA/L	8r	.	.
!	!LO:TX:a:t=CHÓR&colon;	!	!
8FF#/	8r	.	.
8DJ 8DD/	8ff# 8dd 8f#'\	Gust....	.
=265	=265	=265	=265
16EE/LL	8aaL 8cc# 8a'\	.	.
16E/	.	.	.
16AA/	8gg 8cc# 8g'\	.	.
16E/JJ	.	.	.
16EE/LL	8ff# 8cc# 8f#'\	.	.
16E/	.	.	.
16AA/	8ggJ 8cc# 8g'\	.	.
16E/JJ	.	.	.
=266	=266	=266	=266
*	*^	*	*
16FF#/LL	4bb 4b/	8r	.	.
16F#/	.	.	.	.
16AA/	.	8dd\	.	.
16F#/JJ	.	.	.	.
16FF#/LL	8aaL 8dd 8a\	4ryy	.	.
16D/	.	.	.	.
16AA/	8dddJ 8aa 8dd'\	.	.	.
16D/JJ	.	.	.	.
*	*v	*v	*	*
!!LO:LB:g=original
=267	=267	=267	=267
16GG/LL	8dddL 8aa 8dd'\	.	.
16E/	.	.	.
16AA/	8ccc# 8aa 8cc#'\	.	.
16E/JJ	.	.	.
16GG/LL	8bb 8aa 8b'\	.	.
16E/	.	.	.
16AA/	8ccc#J 8aa 8cc#'\	.	.
16E/JJ	.	.	.
=268	=268	=268	=268
16FF#/LL	(4eee 4aa (4ee\	.	.
16D/	.	.	.
16AA/	.	.	.
16D/JJ	.	.	.
16FF#/LL	8ddd 8aa 8dd\))	.	.
16F#/	.	.	.
16D/	(24ddd\LL	.	.
.	24eee\	.	.
16F#/JJ	.	.	.
.	24ddd\JJ	.	.
=269	=269	=269	=269
16BB\LL	8ccc#\L)	.	<
16F#\	.	.	.
16D\	8ddd 8dd\	.	.
16F#\JJ	.	.	.
16BB\LL	8eee 8ee\	.	.
16F#\	.	.	.
16D\	8fff#J 8ff#\	.	.
16F#\JJ	.	.	[
=270	=270	=270	=270
16EE/LL	(4fff# 4ddd 4gg#X 4ff#^^\	.	sf >
16E/	.	.	.
16BB/	.	.	.
16E/JJ	.	.	.
16EE/LL	8bbL 8gg#\)	.	]
16E/	.	.	.
16BB/	8eeeJ 8ee\	.	.
16E/JJ	.	.	.
!!LO:LB:g=original
=271	=271	=271	=271
16AA/LL	(8dddL 8ggn 8dd\	.	.
16E/	.	.	.
16AA/	8ccc# 8gg 8cc#\)	.	.
16E/JJ	.	.	.
16AA/LL	8bb 8gg 8b'\	.	.
16E/	.	.	.
16AA/	8aaJ 8cc# 8a'\	.	.
16E/JJ	.	.	.
=272	=272	=272	=272
16D/LL	(4bb [4ff# [4dd (4b\	.	.
16F#/	.	.	.
16AA/	.	.	.
16D/JJ	.	.	.
16FF#/LL	8aaL 8ff#] 8dd] 8a\))	.	.
16AA/	.	.	.
16DD/	8ff#'\J	.	.
16AA/JJ	.	.	.
=273	=273	=273	=273
16EE/LL	8aaL 8cc# 8a'\	.	.
16E/	.	.	.
16AA/	8gg 8cc# 8g'\	.	.
16E/JJ	.	.	.
16EE/LL	8ff# 8cc# 8f#'\	.	.
16E/	.	.	.
16AA/	8ggJ 8cc# 8g'\	.	.
16E/JJ	.	.	.
=274	=274	=274	=274
*	*^	*	*
16FF#/LL	4bb 4b/	8r	.	.
16F#/	.	.	.	.
16AA/	.	8dd\	.	.
16F#/JJ	.	.	.	.
16FF#/LL	8aaL 8dd 8a\	4ryy	.	.
16D/	.	.	.	.
16AA/	8dddJ 8dd\	.	.	.
16D/JJ	.	.	.	.
*	*v	*v	*	*
!!LO:LB:g=original
=275	=275	=275	=275
16GG/LL	8dddL 8dd\	.	<
16E/	.	.	.
16BB-X/	8ccc# 8cc#\	.	.
16E/JJ	.	.	.
16GG/LL	8bb#X 8b#X\	.	.
16E/	.	.	.
16BB-/	8ccc#J 8cc#\	.	.
16E/JJ	.	.	[
=276	=276	=276	=276
16GG#X/LL	(4eee 4bbn 4ee\	.	sf >
16E/	.	.	.
16BBn/	.	.	.
16E/JJ	.	.	.
16GG#/LL	8ddd 8dd\)	.	]
16E/	.	.	.
*	*tuplet	*	*
16BB/	(24ddd\LL	.	.
.	24eee\	.	.
16E/JJ	.	.	.
.	24ddd\JJ	.	.
=277	=277	=277	=277
16AA\LL	8ccc#\L)	.	<
16A\	.	.	.
16D\	8ddd 8aa 8ff# 8dd\	.	.
16A\JJ	.	.	.
16AA\LL	8eee 8aa 8ff#\	.	.
16A\	.	.	.
16D\	8fff#J 8aa 8ff#\	.	.
16A\JJ	.	.	[
=278	=278	=278	=278
*ped	*8va	*	*
16AA\LL	(4aaa 4ccc# (4aa\	.	sff
16C#\	.	.	.
16E\	.	.	.
16A\JJ	.	.	.
*Xped	*	*	*
16AA\LL	8gggL 8ccc# 8gg\))	.	.
16A\	.	.	.
16AA\	8fff#J 8ccc# 8ff#\	.	.
16A\JJ	.	.	.
!!LO:PB:g=original
=279	=279	=279	=279
.	8qfff#/	.	.
16AA\LL	8eeeL 8ccc# 8gg'\	.	.
16A\	.	.	.
16AA\	8ddd#X 8ccc# 8ff#'\	.	.
16A\JJ	.	.	.
16AA\LL	8eee 8ccc# 8gg'\	.	.
16A\	.	.	.
16AA\	8fff#J 8ccc# 8gg'\	.	.
16A\JJ	.	.	.
=280	=280	=280	=280
8D\	8ddd 8ff#/	.	.
*	*X8va	*	*
8B'\L	(>16dd/LL	.	p
.	16d/JJ	.	.
8A'\	16f#/LL	.	.
.	16d/	.	.
8BJ 8G'\	16g/	.	.
.	16d/JJ	.	.
=281	=281	=281	=281
8AL 8F#'\	16a/LL	.	.
.	16d/JJ	.	.
.	(8qcc#/	.	.
8G'\	16b/LL)	.	.
.	16d/JJ	.	.
8F#'\	16a/LL	.	.
.	16d/	.	.
8AJ 8E'\	16g/	.	.
.	16c#/JJ	.	.
=282	=282	=282	=282
8AL 8D'\	16f#/LL	.	.
.	16d/	.	.
8G'\	16b/	.	.
.	16B/JJ	.	.
8F#'\	16d/LL	.	.
.	16A/	.	.
8E'\J	16e 16c#/	.	.
.	16A/JJ	.	.
!!LO:LB:g=original
=283	=283	=283	=283
8D'/L	16f#LL 16d/	.	.
.	16A/JJ	.	.
.	8qa/	.	.
8GG'/	16gLL 16e/	.	.
.	16B/JJ	.	.
8AA'/	16f#LL 16d/	.	.
.	16A/	.	.
8GJ 8AA'/	16e 16c#/	.	.
.	16A/JJ	.	.
=284	=284	=284	=284
8F# 8D\	8d/)	.	.
8B'\L	(>16dd/LL	.	.
.	16d/JJ	.	.
8A'\	16cc#/LL	.	.
.	16d/	.	.
8G'\J	16b/	.	.
.	16d/JJ	.	.
=285	=285	=285	=285
8F#'\L	16a/LL	.	.
.	16d/JJ	.	.
.	8qcc#/	.	.
8G'\	16b/LL	.	.
.	16d/JJ	.	.
8F#'\	16a/LL	.	.
.	16d/	.	.
8E'\J	16g 16c#/	.	.
.	16A/JJ	.	.
=286	=286	=286	=286
8D'\L	16f#/LL	.	.
.	16d/	.	.
8G'\	16b/	.	.
.	16B/JJ	.	.
8F#'\	16d/LL	.	.
.	16A/	.	.
8E'\J	16e 16c#/	.	.
.	16A/JJ	.	.
!!LO:LB:g=original
=287	=287	=287	=287
8D'/L	16f#/LL	.	.
.	16d/	.	.
8E'/	16g 16e/	.	.
.	16B/JJ	.	.
8F#'/	16f#LL 16d/	.	.
.	16B/	.	.
8FF#'/J	16e 16A#X/	.	.
.	16c#/JJ	.	.
=288	=288	=288	=288
8BB/	8d 8B/)	.	.
8C#/L	16r	.	<
.	16c#/	.	.
8D/	16r	.	.
.	16d/	.	.
8E/J	16r	.	.
.	16e/	.	.
=289	=289	=289	=289
8F#\L	16r	.	.
.	16f#/	.	.
8G\	16r	.	.
.	16g/	.	.
8A\	16r	.	.
.	16a/	.	.
8A#X\J	16r	.	.
.	(<16a#X/	.	[
=290	=290	=290	=290
8B\	8b\)	.	.
8r	8r	.	.
4r	4r	.	.
!!LO:LB:g=original
=291	=291	=291	=291
4B 4F# 4BB\	4ff# 4dd#X 4b 4a\	.	ff
8.BL 8.F# 8.BB\	8.ff#L 8.dd# 8.b 8.a\	.	.
16BJk 16F# 16BB\	16ff#Jk 16dd# 16b 16a\	.	.
=292	=292	=292	=292
4B 4E\	4ee 4b 4g#X\	.	.
4r	4r	.	.
=293	=293	=293	=293
4A 4E 4AA\	4ee 4cc# 4a 4gn\	.	.
8.AL 8.E 8.AA\	8.eeL 8.cc# 8.a 8.g\	.	.
16AJk 16E 16AA\	16eeJk 16cc# 16a 16g\	.	.
=294	=294	=294	=294
4A 4D\	4dd 4a 4f#/	.	.
4r	8r	.	.
.	8dd\	.	p
=295	=295	=295	=295
8GG/	4dd\	.	.
8B-XL 8G\	.	.	.
8B- 8G\	8g/L	.	.
8B-J 8G\	8b-X/J	.	.
=296	=296	=296	=296
8qGG/	.	.	.
8D\L	4a/	.	.
8A 8F#\	.	.	.
8A 8F#\	8d/	.	.
8d^\J	8r	.	.
!!LO:LB:g=original
=297	=297	=297	=297
4d 4G^\	8g/L	.	.
.	8a/	.	.
8G^\L	8b-X/	.	.
8B-X^\J	8dd/J	.	.
=298	=298	=298	=298
*	*^	*	*
*	*	*tremolo	*	*
8qGG/	.	.	.	.
4A^\	4.dd/	8f#L 8d\	.	.
.	.	8f# 8d\	.	.
8D\L	.	8f# 8d\	.	.
8D\J	8dd/	8f#J 8d\	.	.
*	*	*Xtremolo	*	*
=299	=299	=299	=299	=299
8GL 8GG\	4dd/	8r	.	.
8A\	.	8gL 8d\	.	.
8B-X\	8g/L	8d\	.	.
8d\J	8b-X/J	8g\J	.	.
*	*v	*v	*	*
=300	=300	=300	=300
8dL 8D\	4a/	.	.
8A 8F#\	.	.	.
8A 8F#\	8d/L	.	.
8AJ 8F#\	8d/J	.	.
=301	=301	=301	=301
*	*^	*	*
8GG/L	4dd/	8r	.	.
8D/	.	8b-XL 8g 8d\	.	.
8BB-X/	8g/L	8d\	.	.
8GG/J	8b-J 8g/	8d\J	.	.
*	*v	*v	*	*
=302	=302	=302	=302
8AA/	8a 8e 8c#/	.	.
8r	8r	.	.
8qAAA'/	.	.	.
8AA'^^/L	8A'/L	.	f
8BB'/J	8B'/J	.	.
!!LO:PB:g=original
=303	=303	=303	=303
8C#'\L	8c#'/L	.	.
8E'\	8e'/	.	.
8G'\	8g'/	.	.
8B'\J	8b'/J	.	.
=304	=304	=304	=304
8A\	8a/	.	.
8r	8r	.	.
8qDD/	.	.	.
8D^^\L	8d'/L	.	.
8E'\J	8e'/J	.	.
=305	=305	=305	=305
8F#'\L	8f#'\L	.	.
8A'\	8a'\	.	.
8cn'\	8ccn'\	.	.
8e'\J	8ee'\J	.	.
=306	=306	=306	=306
4d\	4dd\	.	.
4r	4r	.	.
=307	=307	=307	=307
4e 4B 4G#X^^\	4ddd 4ee 4dd^^\	.	.
8.eL 8.B 8.G#\	8.dddL 8.ee 8.dd\	.	.
16eJk 16B 16G#\	16dddJk 16ee 16dd\	.	.
=308	=308	=308	=308
4e 4d 4A\	4aa 4ee 4dd\	.	.
4r	16bb^\LL	.	.
.	16aa\	.	.
.	16gg\	.	.
.	16ff#\JJ	.	.
!!LO:LB:g=original
=309	=309	=309	=309
8GL 8C# 8AA/	16ee\LL	.	.
.	16dd\	.	.
8G 8C# 8AA/	16cc#\	.	.
.	16b\JJ	.	.
8G 8C# 8AA/	16a/LL	.	.
.	16g/	.	.
8GJ 8C# 8AA/	16f#/	.	.
.	16e/JJ	.	.
=310	=310	=310	=310
8DD/	8d/	.	p
!	!LO:TUP:b:problem=klamra łukowa	!	!
8dL 8A 8F#\	24a/LL	.	.
.	24b/	.	.
.	24a/JJ	.	.
8d 8B 8E#X\	(8g#X/L	.	.
8dJ 8A 8F#\	8a/J)	.	.
=311	=311	=311	=311
8BB/	4dd\	.	.
8dL 8B 8F#\	.	.	.
8e 8A#X 8F#\	8cc#\L	.	.
8dJ 8B 8F#\	8dd\J	.	.
=312	=312	=312	=312
8GG\L	4.b\	.	.
8e 8B 8G\	.	.	.
8d#X 8B 8F#\	.	.	.
8eJ 8B 8G\	8b\	.	.
!!LO:LB:g=original
=313	=313	=313	=313
8AA/	8cc#L 8a/	.	.
8c#L 8A\	8a 8g'/	.	.
8dn 8A\	8b 8g'/	.	.
8eJ 8A\	8cc#J 8g'/	.	.
=314	=314	=314	=314
8D 8DD/	8dd 8f# 8d/	.	f
!	!LO:TUP:b:problem=klamra łukowa	!	!
8f#L 8d 8A\	24a/LL	.	.
.	24b/	.	.
.	24a/JJ	.	.
8e#X 8d 8B\	8g#X/L	.	.
8f#J 8d 8A\	8a/J	.	.
=315	=315	=315	=315
8D 8DD/	4ff#\	.	.
8f#L 8d 8B\	.	.	.
8f# 8e 8A#X\	8cc#\L	.	.
8f#J 8d 8B\	8dd\J	.	.
=316	=316	=316	=316
8GG/	4.b\	.	.
8eL 8B 8G\	.	.	.
8d#X 8B 8F#\	.	.	.
8eJ 8B 8G\	8b\	.	.
=317	=317	=317	=317
8AA/	8cc#\L	.	.
*clefG2	*	*	*
8c#L 8A/	8gg 8g\	.	.
8dn 8A/	8ee 8g\	.	.
8eJ 8A/	8cc#J 8g\	.	.
*clefF4	*	*	*
!!LO:LB:g=original
=318	=318	=318	=318
8d 8D\	8dd 8f#/	.	.
8c#\L	8eeL 8a'\	.	.
8d\	8ff# 8a'\	.	.
8A#X\J	8cc#J 8g'\	.	.
=319	=319	=319	=319
8B\L	8ddL 8f#\	.	.
8cn 8F#\	8dd#X 8a\	.	.
8BJ 8G\	8eeJ 8b\	.	.
8A 8AA\	8aa 8ee 8cc#X 8a\	.	sf
=320	=320	=320	=320
8A 8D\	8ff# 8dd 8a\	.	sf
8c#L 8C#\	8eeL 8a\	.	.
8d 8D\	8ff# 8a\	.	.
8A#XJ 8AA#X\	8cc#J 8g\	.	.
=321	=321	=321	=321
8BL 8BB/	8ddL 8f#\	.	.
8F# 8FF#/	8dd#X 8ccn 8a\	.	.
8G 8GG/	8ee 8b 8g\	.	.
8AAJ 8AAA/	8aaJ 8ee 8cc#X 8g\	.	f
=322	=322	=322	=322
*ped	*	*	*
8D 8AA 8DD/	4ddd 4aa 4ff# 4dd^^\	.	ff
16ALL 16F#\	.	.	.
16d\JJ	.	.	.
16ALL 16F#\	16eee\LL	.	.
16d\	16ddd\	.	.
16A 16F#\	16ccc#\	.	.
16d\JJ	16ddd\JJ	.	.
!!LO:LB:g=original
=323	=323	=323	=323
16ALL 16F#\	8fff#'\L	.	.
16d\	.	.	.
16A 16F#\	8ddd'\	.	.
16d\JJ	.	.	.
16F#LL 16D\	8aa'\	.	.
16A\	.	.	.
16F# 16D\	8ff#'\J	.	.
16A\JJ	.	.	.
=324	=324	=324	=324
*Xped	*	*	*
8d\	8dd\	.	.
(32e\LLL	(32ee\LLL	.	.
32d\	32dd\	.	.
32c#\	32cc#\	.	.
32d\JJJ	32dd\JJJ	.	.
8a\L)	8aa\L)	.	.
8f#'\J	8ff#'\J	.	.
=325	=325	=325	=325
8d'\	8dd'\	.	.
8BL 8BB'\	8b'/L	.	.
8A 8AA'\	8a'/	.	.
8F#J 8FF#'\	8f#'/J	.	.
=326	=326	=326	=326
8D 8DD/	8d/	.	.
8r	8r	.	.
8B 8BB\	8dd 8f# 8d/	.	.
8r	8r	.	.
=327	=327	=327	=327
8F# 8FF#/	8ff# 8dd 8a\	.	.
8r	8r	.	.
8A 8AA\	8aa 8ee 8cc# 8a\	.	.
8r	8r	.	.
=328	=328	=328	=328
4D 4AA 4DD/	4ddd 4ff# 4dd\	.	.
4r	4r	.	.
==	==	==	==
*-	*-	*-	*-
!!!system-decoration: {(*)}
!!!RDF**kern: > = above
!!!RDF**kern: < = below
!!!ENC: Berenika Jozajtis
!!!END: 2022-08-20
!!!ENC: Andrzej Kubiczek
!!!END: 2022-10-10
!!!YEC: Copyright 2022 Narodowy Instytut Fryderyka Chopina (https://polishscores.org)
!!!YEM: License CC-BY-4.0 (https://creativecommons.org/licenses/by/4.0)
